X:1
T:BWV1051M
T:johann Sebastian Bach
%%score { 1 | 2 } { 3 | 4 } { 5 | 6 }
L:1/8
M:4/4
K:A
V:1 treble nm="Harpsichord 1"
V:2 bass 
V:3 treble nm="Harpsichord 2"
V:4 bass 
V:5 treble nm="Harpsichord 3"
V:6 bass 
V:1
 A/G/A- A/E/C/A,/ E/D/E- E/C/A,/E,/ | A,/G,/A,- A,/E,/C- C/A,/E- E/C/A- | %2
 A/E/c/G/ A/E/C/G,/ A,/E,/C,/E,/ A,/G,/C/B,/ | E/D/C/B,/ A,/E/A/G/ c/B/e/d/ c/B/A/=G/ | %4
 F/A/d/c/ B/A/G/F/ E/^D/E- E/B,/G,/E,/ | B,/A,/B,- B,/G,/E,/B,,/ E,/^D,/E,- E,/B,,/G,- | %6
 G,/E,/B,- B,/G,/E- E/B,/G/E/ B/G/E/B,/ | G/E/B,/G,/ E/B,/G,/E,/ A,/G,/A,- A,/E,/C- | %8
 C/A,/E- E/C/A- A/=G/F/E/ D/c/B/A/ | G/B/d- d/G/B/E/ G/B,/D- D/G,/B,/E,/ | %10
 G,/B,,/D,- D,/E,/G,/E,/ B,/G,/E/B,/ G/E/B/D/ | C/E/A- A/c/e/A/ c/E/A- A/C/E/A,/ | %12
 C/E,/A,- A,/E,/C,/E,/ A,/E,/C/A,/ E/C/A/F/ | ^D/F/A- A/D/F/B,/ D/F,/A,- A,/^D,/F,/B,,/ | %14
 ^D,/F,/A,- A,/F,/^D- D/B,/F- F/D/A- | A/F/G/E/ B/G/d/B/ e/G/A/D/ C/A/B,/G/ | A2 z E AA/G/ AA/G/ | %17
 A/E/C/D/ E/C/A,/B,/ C/E/C/B,/ C/E/C/B,/ | CA,/B,/ CC/D/ E/c/A/G/ A/c/A/G/ | %19
 A/E/F/G/ A/G/A/B/ c/e/c/B/ c/e/c/B/ | cA z e f/e/d/e/ f/e/d/c/ | %21
 B/A/G/A/ B/d/c/d/ e/d/c/d/ e/d/c/B/ | A/=G/F/G/ A/c/B/c/ d2- d/B/A/B/ | %23
 c2- c/A/G/A/ B-B/c/ A/4G/4A/4G/4F/E/ | E/^D/E- E/B,/G,/E,/ B,/A,/B,- B,/G,/E,/B,,/ | %25
 E,/^D,/E,- E,/B,,/G,- G,/E,/B,- B,/G,/D- | D/B,/C/A,/ E/C/=G- G/E/F/D/ A/F/=c- | %27
 c/B/^c/A/ E/A/B/G/ AA/G/ AA/G/ | A/E/C/D/ E/C/A,/B,/ C/E/C/B,/ C/E/C/B,/ | %29
 CA,/B,/ CC/D/ E/c/A/G/ A/c/A/G/ | F2 z F/ z/ B/d/B/A/ B/d/B/A/ | G2 z B ee/^d/ ee/d/ | %32
 e/B/G/A/ B/G/E/F/ G/B/G/F/ G/B/G/F/ | GE,/F,/ G,G,/A,/ B,/G/E/^D/ E/G/E/D/ | %34
 E/B,/C/^D/ E/D/E/F/ G/B/G/F/ G/B/G/F/ | GE z B c/B/A/B/ c/B/A/G/ | %36
 F/E/^D/E/ F/A/G/A/ B/A/G/A/ B/A/G/F/ | E/^D/C/D/ E/G/F/G/ A2- A/F/E/F/ | %38
 G2- G/A/G/A/ B/^D/E/F/ E/4D/4E/4D/4E/4D/4E/ | E2 z E dd/c/ dd/c/ | %40
 d/B/G/A/ B/G/E/F/ G/E/B,/C/ D/B,/G,/B,/ | CA, z C BB/A/ BB/A/ | %42
 B/G/^E/F/ G/E/C/^D/ E/C/G,/A,/ B,/G,/^E,/G,/ | A,F, z F ee/d/ ee/d/ | %44
 e/c/^A/B/ c/A/F/G/ A/F/C/D/ E/C/^A,/C/ | D/F/B- B/F/D/B,/ F/E/F- F/D/B,/F,/ | %46
 B,/^A,/B,- B,/F,/D- D/B,/F- F/D/B- | B/F/d/^A/ B/F/D/^A,/ B,/F,/D,/F,/ B,/A,/D/C/ | %48
 F/E/D/F/ B/A/=G/F/ E/D/G/F/ E/D/C/B,/ | ^A,/C/E- E/^A/c/F/ A/C/E- E/A,/C/F,/ | %50
 ^A,/C,/E,- E,/F,/A,/F,/ C/A,/F/C/ ^A/F/c/A/ | d/^A/B/c/ B/4A/4B/4A/4B/4A/4B/ B2 z B, | %52
 AA/G/ AA/G/ A/F/^D/E/ F/D/B,/C/ | ^D/B,/F,/G,/ A,/F,/^D,/F,/ G,E, z G, | %54
 FF/E/ FF/E/ F/^D/^B,/C/ D/B,/G,/^A,/ | ^B,/G,/^D,/E,/ F,/D,/^B,,/D,/ E,C, z G, | %56
 CC/^B,/ CC/B,/ C/G,/E,/F,/ G,/E,/C,/^D,/ | E,/G,/E,/^D,/ E,/G,/E,/D,/ E,C,/D,/ E,E,/F,/ | %58
 G,/E/C/^B,/ C/E/C/B,/ C/G,/^A,/B,/ C/B,/C/^D/ | E/G/E/^D/ E/G/E/D/ EC/D/ EE/F/ | %60
 G/e/c/^B/ c/e/c/B/ cC z2 | z z2 A B/A/G/A/ B/A/G/F/ | E/D/C/B,/ A,c d/c/B/c/ d/c/B/A/ | %63
 G/F/=F/^D/ CF ^F/E/=D/C/ B,/A,/G,/F,/ | =F,^F,/G,/ C,^E FF/E/ FF/E/ | %65
 F/C/A,/B,/ C/A,/F,/G,/ A,/C/A,/G,/ A,/C/A,/G,/ | A,F,/G,/ A,A,/B,/ C/A/F/=F/ ^F/A/F/E/ | %67
 ^D2 z D G/B/G/F/ G/B/G/F/ | ^E2 z G c/B/A/B/ c/B/A/G/ | F/^E/_E/^E/ F/A/G/A/ B/A/G/A/ B/A/G/F/ | %70
 ^E/^D/C/D/ E/G/F/G/ A/G/F/G/ A/G/F/=E/ | D/F/^E/F/ G2- G/C/F/G/ F/4E/4F/4E/4F/4E/4F/ | %72
 F/^E/F- F/C/A,/F,/ C/B,/C- C/A,/F,/C,/ | F,/^E,/F,- F,/C,/A,- A,/F,/C- C/A,/F- | %74
 F/C/A/^E/ F/C/A,/^E,/ F,/C,/A,/F,/ C/^A,/=E- | E/C/D/B,/ F/D/B- B/F/=G/D/ B/G/d- | %76
 d/B/G/^E/ B/G/E/C/ G/=F/C/G,/ D/B,/G,/^E,/ | C,^E/G/ c>E G/C/=F/G,/ B,>^E, | %78
 G,/C,/=F,/G,/ B,/D/C/B,/ A,/A/G/F/ F/4^E/4F/4E/4F/4E/4F/ | F2 z F/G/ ^A/c/A/G/ A/c/A/G/ | %80
 ^A2 z/ c/A/B/ c/e/c/B/ c/B/A/c/ | BF z E/F/ G/B/G/F/ G/B/G/F/ | G2 z/ B/G/A/ B/d/B/A/ B/A/G/B/ | %83
 AA, z A, =GG/F/ GG/F/ | =G/E/C/D/ E/C/A,/B,/ C/A,/E,/F,/ =G,/E,/C,/E,/ | %85
 F,d/c/ d>A F/D/A/=G/ A-A/>F/ | D/A,/D/C/ D>A, F,/D,/A,/=G,/ A,>F, | D>A, F>D A>F =c>A | %88
 B>A =G/F/E/D/ C/E/G- G/C/E/A,/ | C/E,/=G,- G,/C,/E,/A,/ C/E/=G- G/E/c/A/ | %90
 d/F/=G/A/ FE/D/ D2 z F | dd/c/ dd/c/ d/B/G/A/ B/G/E/F/ | G/E/B,/C/ D/B,/G,/B,/ CA, z C | %93
 AA/G/ AA/G/ A/F/^D/E/ F/D/B,/C/ | ^D/B,/F,/G,/ A,/F,/^D,/F,/ G,E, z2 | z z2 c d/c/B/c/ d/c/B/A/ | %96
 G/F/E/F/ G/B/A/B/ c/B/A/B/ c/B/A/=G/ | F/E/D/E/ F/=G/A/F/ B/A/^G/A/ B/A/G/F/ | %98
 E/G/F/G/ A/E/D/E/ F2- F/D/C/D/ | E2- E/C/B,/C/ D2- D/B,/A,/B,/ | %100
 C/A,/E- E/C/B,/A,/ B,/G,/E- E/D/C/B,/ | C/A,/E- E/C/B,/A,/ G,/F,/E, z E | %102
 AA/G/ AA/G/ A/E/C/D/ E/C/A,/B,/ | C/E/C/B,/ C/E/C/B,/ CA,/B,/ CC/D/ | %104
 E/c/A/G/ A/c/A/G/ A/E/F/G/ A/G/A/B/ | c/e/c/B/ c/e/c/B/ cA z e | %106
 f/e/d/e/ f/e/d/c/ B/A/G/A/ B/c/d/B/ | e/d/c/d/ e/d/c/B/ A/G/F/G/ A/B/c/A/ | %108
 d2- d/B/A/B/ c2- c/A/G/A/ | B/d/c/B/ c/4B/4c/4B/4c/4B/4A/ A2 z2 | z2 z A d/c/B/c/ d/c/B/A/ | %111
 G/F/E/F/ G/A/B/G/ c/B/A/B/ c/B/A/G/ | F/A/G/A/ B2- B/G/F/G/ A2- | %113
 A/G/A/B/ A/4G/4A/4G/4A/4G/4A/ A/G/A- A/E/C/A,/ | E/D/E- E/C/A,/E,/ A,/G,/A,- A,/E,/C- | %115
 C/A,/E- E/C/A- A/E/c/G/ A/E/C/G,/ | A,/E,/C,/E,/ A,/G,/C/B,/ E/D/C/B,/ A,/E/A/G/ | %117
 c/B/e/d/ c/B/A/=G/ F/A/d/c/ B/A/^G/F/ | E/^D/E- E/B,/G,/E,/ B,/A,/B,- B,/G,/E,/B,,/ | %119
 E,/^D,/E,- E,/B,,/G,- G,/E,/B,- B,/G,/E- | E/B,/G/E/ B/G/E/B,/ G/E/B,/G,/ E/B,/G,/E,/ | %121
 A,/G,/A,- A,/E,/C- C/A,/E- E/C/A- | A/=G/F/E/ D/c/B/A/ ^G/B/d- d/G/B/E/ | %123
 G/B,/D- D/G,/B,/E,/ G,/B,,/D,- D,/E,/G,/E,/ | B,/G,/E/B,/ G/E/B/D/ C/E/A- A/c/e/A/ | %125
 c/E/A- A/C/E/A,/ C/E,/A,- A,/E,/C,/E,/ | A,/E,/C/A,/ E/C/A/F/ ^D/F/A- A/D/F/B,/ | %127
 ^D/F,/A,- A,/^D,/F,/B,,/ D,/F,/A,- A,/F,/D- | D/B,/F- F/^D/A- A/F/G/E/ B/G/d/B/ | %129
 e/G/A/D/ C/A/B,/G/ !fermata!A2 z2 |[Q:1/4=176]"^Vivement" z8 |[M:12/8] z12 | z12 | z12 | z12 | %135
 z4 e4 f4 | %136
 A/4G/4A/4G/4A/4G/4A/4G/4A/4G/4A/4G/4 A/4G/4A/4G/4A/4G/4A/4G/4A/4G/4A/4G/4 A/4G/4A/4G/4A/4G/4F/4G/4 A4 | %137
 z2 A2 B2 dc d2 d2- | d2 c B c2 ed e2 e2- | e2 d c d2 fe f2 ed | %140
 e3 f c4 c/4B/4c/4B/4 c/4B/4c/4B/4c/4B/4c/4B/4A | AEc BA=G FED C D2- | DFB AGF EDC B, C2- | %143
 CEA =GFE DE/F/B, DA^G | A2 A,2 A4 B4 | %145
 D/4C/4D/4C/4D/4C/4D/4C/4D/4C/4D/4C/4 D/4C/4D/4C/4D/4C/4D/4C/4D/4C/4D/4C/4 D/4C/4D/4C/4D/4C/4B,/4C/4 D4 | %146
 z2 D2 E2 =GF G2 G2- | G2 F E F2 A=G A2 A2- | A2 =G F G2 BA B2 AG | %149
 A3 B F4 F/4E/4F/4E/4 F/4E/4F/4E/4F/4E/4F/4E/4D | D4 F4 =G4 | %151
 B,/4^A,/4B,/4A,/4B,/4A,/4B,/4A,/4B,/4A,/4B,/4A,/4 B,/4A,/4B,/4A,/4B,/4A,/4B,/4A,/4B,/4A,/4B,/4A,/4 B,/4A,/4B,/4A,/4B,/4A,/4G,/4A,/4 B,4 | %152
 z2 B,2 C2 ED E2 E2- | E2 ^D CDE DEF/4E/4F/4E/4 F/4E/4F/4E/4F/4E/4F/4E/4F | %154
 FA=G FED =CB,A, G, A,2- | A,=CF E^D^C B,A,=G, F, G,2- | G,B,E D=CB, A,B,/C/F, A,E^D | E12- | %158
 E12- | E=GF E E4 E/4^D/4E/4D/4 E/4D/4E/4D/4E/4D/4E/4D/4E | E4 z8 | z4 z4 z4 | z4 z8 | z12 | %164
 z4 d4 e4 | %165
 =G/4F/4G/4F/4G/4F/4G/4F/4G/4F/4G/4F/4 G/4F/4G/4F/4G/4F/4G/4F/4G/4F/4G/4F/4 G/4F/4G/4F/4G/4F/4E/4F/4 G4 | %166
 z2 =G2 A2 =cB c2 c2- | c2 B A B2 d=c d2 d2- | d2 =c B c2 ed e2 dc | %169
 d3 e B4 B/4A/4B/4A/4 B/4A/4B/4A/4B/4A/4B/4A/4=G | =GDB AGF EDC DCD | E2 E2 F2 A=G A2 A2- | %172
 AB,=G FED CB,^A, B,A,B, | C3 =GFE DCB, ^A,B,D/C/ | DFd cBA GF^E FEF | G3 dcB AGF ^EFA/G/ | %176
 A2 d2- de dcB AGA/B/ | F/4^E/4F/4E/4F/4E/4F/4E/4 C2 F3 CB, A,G,A,/F,/ | C4 c4 d4 | %179
 F/4^E/4F/4E/4F/4E/4F/4E/4F/4E/4F/4E/4 F/4E/4F/4E/4F/4E/4F/4E/4F/4E/4F/4E/4 F/4E/4F/4E/4F/4E/4^D/4E/4 F4 | %180
 z2 F2 G2 BA B2 B2- | B2 A G A2 cB c2 c2- | c2 B A B2 dc d2 cB | c3 d A4 A/4G/4A/4G/4 F G2 | F12 | %185
 B12 | ^E12- | E2 C2 ^D2 F^E F2 F2- | %188
 FAG FF/4^E/4F/4E/4F/4E/4F/4E/4 F/4E/4F/4E/4F/4E/4F/4E/4F/4E/4F/4E/4 F/4E/4^D/4E/4 F2 | %189
 F2 A2 B2 dc d4- | d2 G2 A2 cB c4- | cdc BAG F^EF G/A/GA/B/ | !fermata!^E12 | z8 z2 z E | %194
 AGA CEA AGA CEA | BAB EGB cBc A2 c- | cF A2 ^D B2 E G2 CA- | A^D F2 B,A GFG EGB | %198
 eA c2 F d2 G B2 Ec- | cE A2 C E2 A,C ECE | AE F2 E A2 E F2 EA- | AF d2 Ge cAG A>EF/G/ | %202
 A/G/A z z z/ E/F/G/ A/G/A z z z/ F/G/A/ | B/A/B/A/G/F/ EGB c/B/c/d/c/B/ AEc- | %204
 cF A2 ^D B2 E G2 CA- | A^D F2 B,A GFG EG,B, | E^DE G,B,E EDE G,B,E | FEF B,^DF GFG E2 z | %208
 z z/ B,/C/^D/ E/D/E z z z/ B,/C/D/ E/D/E z | %209
 z z/ C/^D/E/ F/E/F/E/D/C/ B,/A,/B,/C/B,/A,/ G,/F,/G,/A,/B,/G,/ | %210
 C/^D/E/D/C/B,/ ^A,/G,/F,/G,/A,/F,/ B,/C/D/C/B,/A,/ G,/F,/E,/F,/G,/E,/ | %211
 ^A,/B,/C/B,/A,/G,/ F,/G,/A,/G,/F,/E,/ F,/B,/A,/G,/F,/E,/ ^D,/E,/F,/E,/D,/C,/ | %212
 B,,B, G2 C A2 ^D F2 B,G- | GB, E2 G, B,2 E,G, B,G,B, | %214
 EB, C2 B,/A,/G,/F,/ G,/A,/B,/A,/G,/F,/ E,/F,/G,/F,/E,/^D,/ | C,C A2 ^DB GEE/4D/4E/4D/4 E2 z | %216
 z2 G c4 F^A BB, z | z2 F B4 EG AA, z | z2 A d4 GB c3- | cFA B4 E A2 Ge- | eBc cB e2 B c2 Bd- | %221
 dG B2 E G2 B d2 cA, | E/F/=G/F/E/D/ C/D/E/D/C/B,/ A,/B,/C/D/E/C/ DD,F- | FB, A2 G z2 z4 c- | %224
 cB d2 c e2 d/c/B/A/ G/F/E/D/C/B,/ | A,/G,/A, z/ z2 E,/F,/G,/ A,/G,/A, z/ z2 F,/G,/A,/ | %226
 B,/A,/B,/A,/G,/F,/ E,G,B, C/B,/C/D/C/B,/ A,/C/E/A/c/d/ | eA c2 F d2 G B2 Ec- | %228
 c/A/G/F/E/D/ C/F/E/D/C/B,/ A,/E,/F,/G,/A,/B,/ C/B,/A,/B,/C/D/ | EA, F2 E A2 E F2 EA- | %230
 AF d2 Ge cAG A/E/C/A,/C/E/ | AGA CEA AGA CEA | BAB EGB cBc A2 c- | cF A2 ^D B2 E G2 CA- | %234
 A^D F2 B,A GFG EGB | eA c2 F d2 G B2 Ec- | cE A2 C E2 A,C ECE | AE F2 E A2 E F2 EA- | %238
 AF d2 Ge cAA/4G/4A/4G/4 A>cB/c/ | A/c/G/c/F/c/ ^E/c/^D/c/E/c/ F/c/E/c/F/c/ G/c/F/c/G/c/ | %240
 A/c/G/c/A/c/ B/c/A/c/G/c/ A/c/G/c/F/c/ ^E/C/E/G/c/d/ | =e3 z/ B,/D/F/B/c/ d3 z/ A,/C/E/A/B/ | %242
 c3 z/ G,/B,/^E/G/A/ B3 z/ F,/G,/A,/B,/C/ | D3- D/G,/A,/B,/C/^D/ E3- E/A,/B,/C/D/^E/ | %244
 F-F/A/B/c/ d/c/B/A/G/F/ ^E/^D/E/F/E/F/ G/F/G/A/G/A/ | F^EF A,CF FEF A,CF | GFG C^EG AGA F2 c | %247
 f4 ^B^d e/d/c/e/d/f/ e/G/c/d/4e/4d/e/4f/4 | e4 ^Ac d/c/B/d/c/e/ dBd | c4 FA B4 EG | A4 ^DF G6- | %251
 G3 z/ z G/f/G/ e/G/^d/G/c/G/ ^B/G/^A/G/B/G/ | c/G/^B/G/c/G/ ^d/G/c/G/B/G/ c/G/d/G/e/G/ dG z | %253
 z/ C/E/G/c/B/ A3- A/B,/^D/F/B/A/ G3- | G/A,/C/E/A/G/ F3- F/G,/^B,/^D/G/F/ E3- | %255
 E/^D/C/B,/A,/G,/ F3- F/E/D/C/B,/A,/ G3- | %256
 G/F/E/^D/C/^B,/ C/=B,/A,/G,/F,/E,/ ^D,/C,/D,/E,/D,/E,/ F,/E,/F,/G,/F,/G,/ | %257
 E,G, A,2 G, C2 G, A,2 G,C- | C^A, F2 ^B,G ECC/4B,/4C/4B,/4 C2 E | AGA CEA AGA CEA | %260
 BAB EGB cBc A2 c- | cF A2 ^D B2 E G2 CA- | A^D F2 B,A GFG EGB | eA c2 F d2 G B2 Ec- | %264
 cE A2 C E2 A,C ECE | AE F2 E A2 E F2 EA- | AF d2 Ge cAG A>EF/G/ | %267
 A/G/A z/ z2 E/F/G/ A/G/A z/ z2 F/G/A/ | B/A/B/A/G/F/ EGB c/B/c/d/c/B/ AEc- | %269
 cF A2 ^D B2 E G2 CA- | A^D F2 B,A GFG EG,B, | E^DE G,B,E EDE G,B,E | FEF B,^DF GFG E2 z | %273
 z/ z B,/C/^D/ E/D/E z/ z2 B,/C/D/ E/D/E z | %274
 z z/ C/^D/E/ F/E/F/E/D/C/ B,/A,/B,/C/B,/A,/ G,/F,/G,/A,/B,/G,/ | %275
 C/^D/E/D/C/B,/ ^A,/G,/F,/G,/A,/F,/ B,/C/D/C/B,/A,/ G,/F,/E,/F,/G,/E,/ | %276
 ^A,/B,/C/B,/A,/G,/ F,/G,/A,/G,/F,/E,/ F,/B,/A,/G,/F,/E,/ ^D,/E,/F,/E,/D,/C,/ | %277
 B,,B, G2 C A2 ^D F2 B,G- | GB, E2 G, B,2 E,G, B,G,B, | %279
 EB, C2 B,/A,/G,/F,/ G,/A,/B,/A,/G,/F,/ E,/F,/G,/F,/E,/^D,/ | C,C A2 ^DB GEE/4D/4E/4D/4 E2 z | %281
 z2 G c4 F^A BB, z | z2 F B4 EG AA, z | z2 A d4 GB c3- | cFA B4 E A2 Ge- | eBc cB e2 B c2 Bd- | %286
 dG B2 E G2 B d2 cA, | E/F/=G/F/E/D/ C/D/E/D/C/B,/ A,/B,/C/D/E/C/ DD,F- | FB, A2 G z2 z4 c- | %289
 cB d2 c e2 d/c/B/A/ G/F/E/D/C/B,/ | A,/G,/A, z/ z2 E,/F,/G,/ A,/G,/A, z/ z2 F,/G,/A,/ | %291
 B,/A,/B,/A,/G,/F,/ E,G,B, C/B,/C/D/C/B,/ A,/C/E/A/c/d/ | eA c2 F d2 G B2 Ec- | %293
 c/A/G/F/E/D/ C/F/E/D/C/B,/ A,/E,/F,/G,/A,/B,/ C/B,/A,/B,/C/D/ | EA, F2 E A2 E F2 EA- | %295
 AF d2 Ge cAG A/E/C/A,/C/E/ | AGA CEA AGA CEA | BAB EGB cBc A2 c- | cF A2 ^D B2 E G2 CA- | %299
 A^D F2 B,A GFG EGB | eA c2 F d2 G B2 Ec- | cE A2 C E2 A,C ECE | AE F2 E A2 E F2 EA- | %303
 AF d2 Ge cAA/4G/4A/4G/4 !fermata!A2 z |] %304
V:2
 E,E,E,E, E,E,E,E, | E,E,E,E, E,E,E,E, | E,E,E,E, E,E,E,E, | E,E,E,E, E,E,E,E, | %4
 F,F,F,F, G,G,G,G, | G,G,G,G, G,G,G,G, | G,G,G,G, G,G,G,G, | G,G,G,G, A,A,A,A, | %8
 A,A,A,A, A,A,A,A, | B,B,B,B, B,B,B,B, | B,B,B,B, B,B,B,B, | A,A,A,A, A,A,A,A, | %12
 A,A,A,A, A,A,A,A, | F,F,F,F, F,F,F,F, | F,F,F,F, F,F,F,F, | E,E,G,G, A,>A, A,E, | E,2 z2 z4 | %17
 z z2 z4 E, | A,A,/G,/ A,A,/G,/ A,E,C,E, | E,C/D/ EE/D/ CEEE | E/D/C/B,/ A,/=G,/F,/E,/ D,2 z B, | %21
 E/^D/E z A, =G/F/G z A, | D/C/D z E, A,/G,/A, z E, | A,/G,/A, z F, G,E,B,B,, | E,G,G,G, G,G,G,G, | %25
 G,G,G,G, G,G,G,G, | E,E,E,E, D,D,F,F, | G,E,E,E, E,2 z2 | z8 | z8 | z8 | E,E,E,E, E,E,E,E, | %32
 z4 z2 z B, | EE/^D/ EE/D/ EB,G,B, | B,G,/A,/ B,B,/A,/ G,B,B,B, | %35
 B,/A,/G,/F,/ E,/D,/C,/B,,/ A,,2 z F, | B,/^A,/B, z E, D/C/D z E, | %37
 A,/G,/A, z B,, E,/^D,/E, z B,, | E,/^D,/E, z C, G,/F,/G,/E,/ B,B,, | E,G,/F,/ G,G,/F,/ G,G,G,G, | %40
 E,E,E,E, E,E,G,G, | E,E,/D,/ E,E,/F,/ G,G,G,G, | C,C,C,C, C,C,=F,F, | %43
 C,A,/G,/ A,A,/G,/ ^A,A,A,A, | F,F,F,F, F,F,^A,A, | B,B,F,F, B,B,B,B, | F,F,F,F, F,F,B,B, | %47
 F,F,F,F, F,F,F,F, | B,B,B,B, B,B,EE | EECC F,F,^A,A, | CCCC F,F,F,F, | %51
 F,=G,F,F, F,D,/C,/ D,D,/E,/ | F,F,F,F, B,,B,,B,,B,, | B,,B,,^D,D, B,,B,,/A,,/ B,,B,,/C,/ | %54
 ^D,D,D,D, G,G,G,G, | G,G,^B,B, C2 z2 | z8 | z2 z G, CC/^B,/ CC/B,/ | CG,E,G, G,E,/F,/ G,G,/F,/ | %59
 E,G,/F,/ G,G,/F,/ E,G,/F,/ E,/^D,/C,/^B,,/ | C,C,C,C, C/^D/E/D/ C/B,/A,/G,/ | %61
 F,2 z ^D, G,/=G,/^G, z E, | A,/G,/A, z F, B,/^A,/B, z G, | C/^B,/C z A, D/C/D z G, | %64
 C/C,/F,/B,,/ C,C, F,A,A,A, | A,A,A,A, A,A,A,A, | A,A,A,A, A,2 z2 | z8 | z8 | z8 | z8 | z8 | %72
 A,A,A,A, A,A,A,A, | A,A,A,A, A,A,A,A, | A,A,A,A, F,F,F,F, | F,F,F,F, =G,B,B,B, | %76
 B,B,^E,E, G,G,G,G, | ^EECC G,G,^E,E, | C,C,G,G, F,G,G,G, | A,2 z2 z4 | z8 | z8 | z8 | %83
 z E,/D,/ E,E,/D,/ E,E,E,E, | E,E,E,E, E,E,E,E, | D,D,A,A, A,A,A,A, | A,A,A,A, A,A,A,A, | %87
 A,A,A,A, A,A,A,A, | =G,G,B,B, CCCC | CCCC CCCC | B,B,A,=G, F,F,/E,/ F,F,/E,/ | %91
 F,2 z D B,B,/A,/ G,B,/A,/ | B,D DE/D/ CC/B,/ CC/B,/ | A,C z A, F,F,/E,/ ^D,F,/E,/ | %94
 F,A,/G,/ A,B,/A,/ G,/A,/G,/F,/ E,/D,/C,/B,,/ | A,,E, A,/G,/A, z F, B,/^A,/B, | %96
 z B, E/^D/E z E, A,/=G,/A, | z A, D/C/D z D G,/F,/G, | z E, A,/G,/A, z D, G,/F,/G, | %99
 z C, F,/E,/F, z B,, E,/D,/E, | z A,A,A, E,E,E,E, | A,A,A,A, B,B, B,/A,/G,/F,/ | E, z z2 z4 | %103
 z2 z E, A,A,/G,/ A,A,/G,/ | A,E,C,E, E,C/D/ EE/D/ | CEEE E/D/C/B,/ A,/=G,/F,/E,/ | %106
 D,2 z F, G,/F,/G, z G, | C/^B,/C z C, F,/=F,/^F, z F, | B,/A,/B, z E, A,/G,/A, z D, | %109
 B,,C,/D,/ E,B, C2 z2 | z8 | z8 | z8 | z4 E,E,E,E, | E,E,E,E, E,E,E,E, | E,E,E,E, E,E,E,E, | %116
 E,E,E,E, E,E,E,E, | E,E,E,E, F,F,F,F, | G,G,G,G, G,G,G,G, | G,G,G,G, G,G,G,G, | %120
 G,G,G,G, G,G,G,G, | A,A,A,A, A,A,A,A, | A,A,A,A, B,B,B,B, | B,B,B,B, B,B,B,B, | %124
 B,B,B,B, A,A,A,A, | A,A,A,A, A,A,A,A, | A,A,A,A, F,F,F,F, | F,F,F,F, F,F,F,F, | %128
 F,F,F,F, E,E,G,G, | A,>A, A,E, !fermata!E,2 z2 | z8 |[M:12/8] D,2 E,2 F,2 E,2 =G,2 E,2 | %132
 A,2 =G,2 A,2 F,2 B,2 A,2 | =G,2 F,2 G,2 E,2 A,2 A,,2 | D,2 E,2 D,2 C,2 B,,2 D,2 | %135
 C,2 B,,2 C,2 A,,2 D,2 B,,2 | E,2 D,2 E,2 C,2 F,2 E,2 | D,2 C,2 D,2 B,,2 E,2 E,,2 | %138
 A,,2 E,2 A,2 B,2 A,2 =G,2 | F,2 =G,2 F,2 E,2 D,2 F,2 | C,2 D,2 E,2 D,2 E,2 E,,2 | %141
 A,,2 B,,2 C,2 A,,2 D,2 B,,2 | E,2 D,2 E,2 C,2 F,2 E,2 | D,2 C,2 D,2 B,,2 E,2 E,,2 | %144
 A,,2 =G,,2 F,,2 D,,2 G,,2 E,,2 | A,,2 =G,,2 A,,2 F,,2 B,,2 A,,2 | =G,,2 F,,2 G,,2 E,,2 A,,2 A,,2 | %147
 D,,2 A,2 D2 E2 D2 =C2 | B,2 =C2 B,2 A,2 =G,2 B,2 | F,2 =G,2 A,2 G,2 A,2 A,,2 | %150
 D,2 C,2 D,2 B,,2 E,2 C,2 | F,2 E,2 F,2 D,2 =G,2 F,2 | E,2 D,2 E,2 C,2 F,2 F,,2 | %153
 B,,2 B,2 A,2 =G,2 F,2 E,2 | ^D,2 B,,2 =G,,2 E,,2 A,,2 F,,2 | B,,2 A,,2 B,,2 =G,,2 =C,2 B,,2 | %156
 A,,2 =G,,2 A,,2 F,,2 B,,2 B,,,2 | E,,2 B,,2 E,2 F,2 E,2 D,2 | =C,2 D,2 C,2 B,,2 A,,2 C,2 | %159
 =G,,2 A,,2 B,,2 A,,2 B,,2 B,,,2 | E,,2 B,,2 E,2 F,2 =G,2 F,2 | =G,2 A, B, A,2 G,2 F,2 D,2 | %162
 =G,2 F,2 G,2 E,2 A,2 A,,2 | D,2 D2 =C2 B,2 A,2 =G,2 | F,2 D,2 B,,2 =G,,2 =C,2 A,,2 | %165
 D,2 =C,2 D,2 B,,2 E,2 D,2 | =C,2 B,,2 C,2 A,,2 D,2 D,,2 | =G,,2 D,2 =G,2 A,2 G,2 =F,2 | %168
 E,2 =F,2 E,2 D,2 =C,2 E,2 | B,,2 =C,2 D,2 C,2 D,2 D,,2 | =G,,4 =G,4 B,4 | %171
 D,/4C,/4D,/4C,/4D,/4C,/4D,/4C,/4D,/4C,/4D,/4C,/4 D,/4C,/4D,/4C,/4D,/4C,/4D,/4C,/4D,/4C,/4D,/4C,/4 D,/4C,/4D,/4C,/4D,/4C,/4B,,/4C,/4 ^D,4 | %172
 z4 E,4 =G,4 | %173
 B,,/4^A,,/4B,,/4A,,/4B,,/4A,,/4B,,/4A,,/4B,,/4A,,/4B,,/4A,,/4 B,,/4A,,/4B,,/4A,,/4B,,/4A,,/4B,,/4A,,/4B,,/4A,,/4B,,/4A,,/4 B,,/4A,,/4B,,/4A,,/4B,,/4A,,/4G,,/4A,,/4 B,,4 | %174
 z4 B,4 D4 | %175
 F,/4^E,/4F,/4E,/4F,/4E,/4F,/4E,/4F,/4E,/4F,/4E,/4 F,/4E,/4F,/4E,/4F,/4E,/4F,/4E,/4F,/4E,/4F,/4E,/4 F,/4E,/4F,/4E,/4F,/4E,/4^D,/4E,/4 F,4 | %176
 z2 F,2 G,2 B,A, B,2 B,2- | B,2 A, G,A,B, A,B, B,2- B,C | C2 B,2 A,2 F,2 B,2 G,2 | %179
 C2 B,2 C2 A,2 D2 C2 | B,2 A,2 B,2 G,2 C2 C,2 | F,2 C,2 F,2 G,2 F,2 E,2 | %182
 D,2 E,2 D,2 C,2 B,,2 D,2 | A,,2 B,,2 C,2 B,,2 C,2 G,,2 | ^A,,G,,F,, G,,A,,B,, C,D,E, F,=G,F, | %185
 A,G,F, E,^D,C, B,,A,,G,, F,,^E,,G,,/F,,/ | G,,2 C,,2 G,,2 B,,A,, B,,2 B,,2 | %187
 B,,4 B,,/4A,,/4B,,/4A,,/4B,,/4A,,/4B,,/4A,,/4 G,,2 F,,2 G,,2 | A,,2 B,,2 C,2 B,,2 C,2 C,,2 | %189
 F,,C,F, E,D,C, B,,^A,,B,, =A,,G,,A,,/B,,/ | E,,B,,E, D,C,B,, A,,G,,A,, G,,F,,G,,/A,,/ | %191
 D,,4 z4 D,,4 | !fermata!C,,12 | z12 | C2 z A,2 z C2 z E2 z | F2 z E2 z EDE CB,C | %196
 F,2 z ^D2 z G,2 z C2 z | F,2 ^D, G,2 A, B,A,B, G,F,G, | A,2 z A,2 z A,2 z G,2 z | %199
 A,2 C E,2 A, C,E,A, CA,C | E2 z A,2 z E,2 z A,2 E, | F,2 B, G,2 E, ECB, C2 z | z12 | z12 | z12 | %205
 z12 | G,2 z E,2 z G,2 z B,2 z | C2 z B,2 z B,A,B, G,2 z | z12 | z12 | z12 | z12 | %212
 B,2 z B,2 z A,2 z B,2 z | B,2 z2 z8 | B,2 z E,2 z2 z4 G, | A,2 C ^D2 B, B,G,F, G,2 z | %216
 z8 F, F,2 z | z8 E, E,2 z | z4 z G, E,3 z2 F, | D,3 z2 E, A,3 z z2 | E2 z E2 z B,2 z A,2 G, | %221
 E,2 E E,2 E E,2 E E,2 C | A,2 A A,2 A A,2 C A,2 z | F,2 z E,2 z G,2 z F,2 z | %224
 B,2 z A,2 z F,2 z B,2 z | z4 z8 | z4 z8 | E2 z E2 z D2 z E2 z | E2 z2 z8 | A,2 z A,2 z A,2 z4 | %230
 z12 | C2 z A,2 z C2 z E2 z | F2 z E2 z EDE CB,C | F,2 z ^D2 z G,2 z C2 z | %234
 F,2 ^D, G,2 A, B,A,B, G,F,G, | A,2 z A,2 z A,2 z G,2 z | A,2 C E,2 A, C,E,A, CA,C | %237
 E2 z A,2 z E,2 z A,2 E, | F,2 B, G,2 E, ECB, C2 z | z12 | z12 | z12 | z12 | z12 | z12 | %245
 A,2 z F,2 z A,2 z C2 z | D2 z C2 z CB,C A,2 z | z8 ^D C2 z | z8 C B,2 z | z z4 A, A,3 z2 G, | %250
 G,3 z2 F, G,3 z z2 | G,2 G G,2 G G,2 G G,2 G- | GG,G G,2 G G,2 G G,2 z | z12 | z12 | z12 | z12 | %257
 E,2 z C,2 z G,2 z F,2 E, | C,2 ^D, D,2 D, G,E,D, E,2 z | C2 z A,2 z C2 z E2 z | %260
 F2 z E2 z EDE CB,C | F,2 z ^D2 z G,2 z C2 z | F,2 ^D, G,2 A, B,A,B, G,F,G, | %263
 A,2 z A,2 z A,2 z G,2 z | A,2 C E,2 A, C,E,A, CA,C | E2 z A,2 z E,2 z A,2 E, | %266
 F,2 B, G,2 E, ECB, C2 z | z12 | z12 | z12 | z12 | G,2 z E,2 z G,2 z B,2 z | %272
 C2 z B,2 z B,A,B, G,2 z | z4 z8 | z12 | z12 | z12 | B,2 z B,2 z A,2 z B,2 z | B,2 z2 z8 | %279
 B,2 z E,2 z2 z4 G, | A,2 C ^D2 B, B,G,F, G,2 z | z8 F, F,2 z | z8 E, E,2 z | z4 z G, E,3 z2 F, | %284
 D,3 z2 E, A,3 z z2 | E2 z E2 z B,2 z A,2 G, | E,2 E E,2 E E,2 E E,2 C | A,2 A A,2 A A,2 C A,2 z | %288
 F,2 z E,2 z G,2 z F,2 z | B,2 z A,2 z F,2 z B,2 z | z12 | z12 | E2 z E2 z D2 z E2 z | E2 z2 z8 | %294
 A,2 z A,2 z A,2 z4 | z12 | C2 z A,2 z C2 z E2 z | F2 z E2 z EDE CB,C | F,2 z ^D2 z G,2 z C2 z | %299
 F,2 ^D, G,2 A, B,A,B, G,F,G, | A,2 z A,2 z A,2 z G,2 z | A,2 C E,2 A, C,E,A, CA,C | %302
 E2 z A,2 z E,2 z A,2 E, | F,2 B, G,2 E, ECB, !fermata!C2 z |] %304
V:3
 z A/G/ A>E C/A,/E/D/ E>C | A,/E,/A,/G,/ A,>E, C>A, E>C | A>E c/G/A/E/ C/G,/A,/E,/ C,/E,/A,/G,/ | %3
 C/B,/E/D/ C/B,/A,/E/ A/G/c/B/ e/d/c/B/ | A/=G/F/A/ d/c/B/A/ ^G/F/E/^D/ E>B, | %5
 G,/E,/B,/A,/ B,>G, E,/B,,/E,/^D,/ E,>B,, | G,-G,/E,/ B,>G, E-E/B,/ G/E/B/G/ | %7
 E/B,/G/E/ B,/G,/E- E/B,/C/G,/ A,>E, | C>A, E>C A>=G F/E/D/C/ | D/E/G/B/ d>G B/E/G/B,/ D>G, | %10
 B,/E,/G,/B,,/ D,>E, G,/E,/B,/G,/ E/B,/G/E/ | A/E/C/E/ A>c e/A/c/E/ A>C | %12
 E/A,/C/E,/ A,>E, C,/E,/A,/E,/ C/A,/E/C/ | A/F/^D/F/ A>D F/B,/D/F,/ A,>^D, | %14
 F,/B,,/^D,/F,/ A,>F, ^D>B, F>D | E-E/B/ G/E/B,/G,/ E,>F E/C/D/B,/ | C2 z2 z4 | %17
 z z2 E AA/G/ AA/G/ | A/E/C/D/ E/C/A,/B,/ C/E/C/B,/ C/E/C/B,/ | CA,/B,/ CC/D/ E/c/A/G/ A/c/A/G/ | %20
 AE z z4 F | G/F/E/F/ G/F/E/D/ C/B,/A,/B,/ C/D/E/C/ | F/E/D/E/ F/E/D/C/ B,/D/C/D/ E2- | %23
 E/G/F/G/ A2- A/F/G/E/ E/4^D/4E/4D/4E/4D/4E/ | EE/^D/ E>B, G,/E,/B,/A,/ B,>G, | %25
 E,/B,,/E,/^D,/ E,>B,, G,-G,/E,/ B,>G, | EA/E/ C/A,/E,/C,/ A,d/A/ F/D/A,/F,/ | %27
 E/D/E/C/ D/C/D/B,/ CA, z2 | z z2 E AA/G/ AA/G/ | A/E/C/D/ E/C/A,/B,/ C/E/C/B,/ C/E/C/B,/ | %30
 A,2 z A,/ z/ D/F/D/C/ D/F/D/C/ | B,2 z2 z4 | z2 z B ee/^d/ ee/d/ | %33
 e/B/G/A/ B/G/E/F/ G/B/G/F/ G/B/G/F/ | GE,/F,/ G,G,/A,/ B,/G/E/^D/ E/G/E/D/ | EB, z2 z2 z C | %36
 ^D/C/B,/C/ D/C/B,/A,/ G,/F,/E,/F,/ G,/A,/B,/G,/ | C/B,/A,/B,/ C/B,/A,/G,/ F,/A,/G,/A,/ B,2- | %38
 B,/^D/C/D/ E2- E/A/G/A/ G/4F/4G/4F/4G/4F/4E/ | EE/^D/ EE/D/ EEEE | EEEE EEEE | %41
 EC/B,/ CC/B,/ CCCC | CCCC CCCC | CF/^E/ FF/E/ FFFF | FFFF FFFF | FD/F/ B>F D/B,/F/E/ F>D | %46
 B,/F,/B,/^A,/ B,>F, D>B, F>D | B>F d/^A/B/F/ D/^A,/B,/F,/ D,/F,/B,/A,/ | %48
 D/C/F/E/ D/F/B/A/ =G/F/E/D/ G/F/E/D/ | C/B,/^A,/C/ E>^A c/F/A/C/ E>A, | %50
 C/F,/^A,/C,/ E,>F, A,/F,/C/A,/ F/C/^A/F/ | B/=G/F/E/ DC/B,/ B,B,/^A,/ B,B,/A,/ | %52
 B,B,B,B, B,B,B,B, | B,B,B,B, B,G,/F,/ G,G,/F,/ | G,G,G,G, G,G,G,G, | G,G,G,G, G,2 z2 | %56
 z z2 z4 G, | CC/^B,/ CC/B,/ C/G,/E,/F,/ G,/E,/C,/^D,/ | %58
 E,/G,/E,/^D,/ E,/G,/E,/D,/ E,C,/D,/ E,E,/F,/ | G,/E/C/^B,/ C/E/C/B,/ C/G,/^A,/B,/ C/B,/C/^D/ | %60
 E/G/E/^D/ E/G/E/D/ EC z G | A/G/F/G/ A/G/F/E/ ^D/C/B,/A,/ G,B | %62
 c/B/A/B/ c/B/A/G/ F/E/D/C/ B,/A/G/F/ | =F/^D/C/D/ F/D/C/B,/ A,/G,/F,/E,/ D,/F,/B,- | %64
 B,/C/A,/B,/ A,/4G,/4A,/4G,/4A,/4G,/4F,/ F,2 z2 | z z2 C FF/^E/ FF/E/ | %66
 F/C/A,/B,/ C/A,/F,/G,/ A,/C/A,/G,/ A,/C/A,/G,/ | F,2 z F, B,/D/B,/A,/ B,/D/B,/A,/ | G,2 z z4 C | %69
 D/C/B,/C/ D/C/B,/A,/ G,/F,/^E,/F,/ G,/A,/B,/G,/ | %70
 C/B,/A,/B,/ C/B,/A,/G,/ F,/G,/A,/G,/ F,/G,/A,/F,/ | %71
 B,2- B,/G,/F,/G,/ A,/G,/A,/B,/ A,/4G,/4A,/4G,/4A,/4G,/4F,/ | F,F/^E/ F>C A,/F,/C/B,/ C>A, | %73
 F,/C,/F,/^E,/ F,>C, A,>F, C>A, | F-F/C/ A/^E/F/C/ A,/^E,/F,/C,/ ^A,/F,/C/A,/ | %75
 FB/F/ D/B,/F/D/ B>F =G/D/B/G/ | =Fd/B/ G/F/B/G/ F/C/G/F/ B,/G,/B,- | %77
 B,/^E/G- G/C/E/G,/ B,/^E,/G,- G,/C,/E,/G,/ | %78
 B,/^E,/G,/B,/ D/^E/F/G/ CB,/A,/ A,/4G,/4A,/4G,/4A,/4G,/4F,/ | F,2 z ^A,/B,/ C/E/C/B,/ C/E/C/B,/ | %80
 C2 z/ E/C/D/ E/=G/E/D/ E/D/C/E/ | DB, z G,/A,/ B,/D/B,/A,/ B,/D/B,/A,/ | %82
 B,2 z/ D/B,/C/ D/F/D/C/ D/C/B,/D/ | CC/B,/ CC/B,/ CCCC | EEEE EEEE | %85
 d/c/d- d/A/F/D/ A/=G/A- A/F/D/A,/ | D/C/D- D/A,/F,/D,/ A,/=G,/A,- A,/F,/D- | %87
 D/A,/F- F/D/A- A/F/=c- c/A/F- | F/D/=G/F/ B/A/G/F/ EC/E/ G>C | %89
 E/A,/C/E,/ =G,>C, E,/A,/C/E/ =G/B/A/G/ | F/A/B/D/ D/4C/4D/4C/4D/4C/4D/ DD/C/ D z | %91
 z z2 F dd/c/ dd/c/ | d/B/G/A/ B/G/E/G/ AA/G/ A z | z z2 C AA/G/ AA/G/ | %94
 A/F/^D/E/ F/D/B,/D/ EB, z B | c/B/A/B/ c/B/A/G/ F/E/D/E/ F/A/G/A/ | %96
 B/A/G/A/ B/A/G/F/ E/D/C/D/ E/=G/F/G/ | A/=G/F/G/ A/G/F/E/ D/C/B,/C/ D2- | %98
 D/B,/A,/B,/ C2- C/A,/G,/A,/ B,2- | B,/G,/F,/G,/ A,2- A,/F,/E,/F,/ G,/G,/F,/G,/ | %100
 A,C/A,/ E>C G,B,/G,/ E>G, | A,C/A,/ E>C B,/A,/G,/F,/ E, z | z2 z z4 E | %103
 AA/G/ AA/G/ A/E/C/D/ E/C/A,/B,/ | C/E/C/B,/ C/E/C/B,/ CA,/B,/ CC/D/ | E/c/A/G/ A/c/A/G/ AE z2 | %106
 z z2 A d/c/B/c/ d/c/B/A/ | G/F/E/F/ G/A/B/G/ c/B/A/B/ c/B/A/G/ | F/A/G/A/ B2- B/G/F/G/ A2- | %109
 A/G/A/B/ A/4G/4A/4G/4A/4G/4A/ A2 z C | F/E/D/E/ F/E/D/C/ B,/A,/G,/A,/ B,/C/D/B,/ | %111
 E/D/C/D/ E/D/C/B,/ A,/G,/F,/G,/ A,/B,/C/A,/ | D2- D/B,/A,/B,/ C2- C/A,/G,/A,/ | %113
 B,/D/C/B,/ C/4B,/4C/4B,/4C/4B,/4A,/ A,A/G/ A>E | C/A,/E/D/ E>C A,/E,/A,/G,/ A,>E, | %115
 C>A, E>C A>E c/G/A/E/ | C/G,/A,/E,/ C,/E,/A,/G,/ C/B,/E/D/ C/B,/A,/E/ | %117
 A/G/c/B/ e/d/c/B/ A/=G/F/A/ d/c/B/A/ | G/F/E/^D/ E>B, G,/E,/B,/A,/ B,>G, | %119
 E,/B,,/E,/^D,/ E,>B,, G,>E, B,>G, | E>B, G/E/B/G/ E/B,/G/E/ B,/G,/E- | E/B,/C/G,/ A,>E, C>A, E>C | %122
 A>=G F/E/D/C/ D/E/^G/B/ d>G | B/E/G/B,/ D>G, B,/E,/G,/B,,/ D,>E, | %124
 G,/E,/B,/G,/ E/B,/G/E/ A/E/C/E/ A>c | e/A/c/E/ A>C E/A,/C/E,/ A,>E, | %126
 C,/E,/A,/E,/ C/A,/E/C/ A/F/^D/F/ A>D | F/B,/^D/F,/ A,>^D, F,/B,,/D,/F,/ A,>F, | %128
 ^D>B, F>D E>B G/E/B,/G,/ | E,>F E/C/D/B,/ !fermata!C2 z2 | z8 |[M:12/8] z4 A4 B4 | %132
 D/4C/4D/4C/4D/4C/4D/4C/4D/4C/4D/4C/4 D/4C/4D/4C/4D/4C/4D/4C/4D/4C/4D/4C/4 D/4C/4D/4C/4D/4C/4B,/4C/4 D4 | %133
 z2 D2 E2 =GF G2 G2- | G2 F EF^G FGA/4G/4A/4G/4 A/4G/4A/4G/4A/4G/4A/4G/4A | AEc BA=G FED C D2- | %136
 DFB AGF EDC B, C2- | CEA GFE DE/F/B, DAG | A12- | A12- | %140
 AcB A A4 A/4G/4A/4G/4 A/4G/4A/4G/4A/4G/4A/4G/4A | A4 E4 F4 | %142
 A,/4G,/4A,/4G,/4A,/4G,/4A,/4G,/4A,/4G,/4A,/4G,/4 A,/4G,/4A,/4G,/4A,/4G,/4A,/4G,/4A,/4G,/4A,/4G,/4 A,/4G,/4A,/4G,/4A,/4G,/4F,/4G,/4 A,4 | %143
 z2 A,2 B,2 DC D2 D2- | DCB, CD=C B,A,=G, F, G,2- | G,B,E DCB, A,=G,F, E, F,2- | %146
 F,Ad cBA =GA/B/E Gdc | d12- | d12- | dfe d d4 d/4c/4d/4c/4 d/4c/4d/4c/4d/4c/4d/4c/4d | d8 z4 | %151
 z4 z4 z4 | z4 z8 | z4 z4 z4 | z4 B4 =c4 | %155
 E/4^D/4E/4D/4E/4D/4E/4D/4E/4D/4E/4D/4 E/4D/4E/4D/4E/4D/4E/4D/4E/4D/4E/4D/4 E/4D/4E/4D/4E/4D/4C/4D/4 E4 | %156
 z2 E2 F2 A=G A2 A2- | A2 =G F G2 BA B2 B2- | B2 A =G A2 =cB c2 BA | %159
 B3 =c =G4 G/4F/4G/4F/4 G/4F/4G/4F/4G/4F/4G/4F/4E | E4 =G4 B A B2 | %161
 D/4C/4D/4C/4D/4C/4D/4C/4D/4C/4D/4C/4 D/4C/4D/4C/4D/4C/4D/4C/4D/4C/4D/4C/4 D/4C/4D/4C/4D/4C/4B,/4C/4 D4 | %162
 z2 D2 E2 =GF G2 G2- | G2 F EF=G FGA/4G/4A/4G/4 A/4G/4A/4G/4A/4G/4A/4G/4F/G/ | %164
 A=cB A=GF ED=C B, C2- | CEA =GFE D=CB, A, B,2- | B,D=G FED =CD/E/A, CGF | =G12- | G12- | %169
 GBA =G G4 G/4F/4G/4F/4 G/4F/4G/4F/4G/4F/4G/4F/4G | =G2 D2 E2 GF G2 G2 | _AB=A =GFE ^DF/E/F AGF | %172
 B2 B,2 C2 ED E2 E2- | E=GF EDC B,D/C/D C D2- | D2 F2 G2 BA B2 B2- | Bdc BAG FA/G/A G A2- | %176
 AFG ABA Bd/c/d cBc/d/ | A<G c BAG FED CF/^E/F | ^EC^D EF=E =DCB, ^A, B,2- | %179
 B,DG F^E^D CB,A, G, A,2- | A,CF EDC B,C/D/G, B,F^E | F12- | F12- | %183
 FAG F F4 F/4^E/4F/4E/4 F/4E/4F/4E/4F/4E/4F/4E/4F | E12 | ^D12 | D12- | D2 ^E,2 F,2 A,G, A,2 CB, | %188
 C3 D A,4 A,/4G,/4A,/4G,/4 A,/4G,/4A,/4G,/4A,/4G,/4A,/4G,/4A,/4G,/4F,/4G,/4 | F,4 z2 FED CB,C/D/ | %190
 G,4 z2 EDC B,A,B,/C/ | F,3 DCB, A,G,A, F,CB, | !fermata!C12 | z8 z2 z E | AGA CEA AGA CEA | %195
 BAB EGB cBc A2 c- | cF A2 ^D B2 E G2 CA- | A^D F2 B,A GFG EGB | eA c2 F d2 G B2 Ec- | %199
 cE A2 C E2 A,C ECE | AE F2 E A2 E F2 EA- | AF d2 Ge cAG A2 z | %202
 z z/ E/F/G/ A/G/A z z z/ E/F/G/ A/G/A z | z/ z F/G/A/ B/A/B/A/G/F/ E/D/E/F/E/D/ C/B,/C/D/E/C/ | %204
 F/G/A/G/F/E/ ^D/C/B,/C/D/B,/ E/F/G/F/E/D/ C/B,/A,/B,/C/A,/ | %205
 ^D/E/F/E/D/C/ B,/C/D/C/B,/A,/ B,/E/D/C/B,/A,/ G,/A,/B,/A,/G,/F,/ | E,2 E G,B,E E^DE G,B,E | %207
 FEF B,^DF GFG E-E/B,/C/D/ | E/^D/E z z z/ B,/C/D/ E/D/E z z z/ C/D/E/ | %209
 F/E/F/E/^D/C/ B,DF G/F/G/A/G/F/ EB,G- | GC E2 ^A, F2 B, ^D2 G,E- | E^A, C2 F,E ^DCD B,DF | %212
 BE G2 C A2 ^D F2 B,G- | %213
 G/E/^D/C/B,/A,/ G,/C/B,/A,/G,/F,/ E,/B,,/C,/^D,/E,/F,/ G,/F,/E,/F,/G,/A,/ | %214
 B,E, C2 B, E2 B, C2 B,E- | EC A2 ^DB GEE/4D/4E/4D/4 E2 B, | E4 ^A,C D/E/F/E/D/C/ D/C/B,/D/C/E/ | %217
 D4 G,B, C/D/E/D/C/B,/ CA,C | F4 B,D E4 A,C | D4 G,B, C/B,/C/D/E/F/ B,E,e- | e B2 cB e2 B c2 BE | %221
 B/c/d/c/B/A/ G/A/B/A/G/F/ E/F/G/A/B/G/ AA,=G- | GC E2 A, C2 E =G2 F z | z z4 G2 C B2 A z | %224
 D2 B, E2 C F>ED/C/ B,/A,/G,/F,/E,/D,/ | C, z/ E,/F,/G,/ A,/G,/A, z/ z2 E,/F,/G,/ A,/G,/A, z | %226
 z/ z F,/G,/A,/ B,/A,/B,/A,/G,/F,/ E,/D,/E,/F,/E,/D,/ C,2 e- | eA c2 F d2 G B2 Ec | %228
 cE A2 C E2 A,C ECE | AE F2 E/D/C/B,/ C/D/E/D/C/B,/ A,/B,/C/B,/A,/G,/ | %230
 F,/G,/A,/C/B,/A,/ G,/A,/B,/D/C/B,/ A,/G,/A,/C/B,/D/ C/E/C/A,/C/E/ | AGA CEA AGA CEA | %232
 BAB EGB cBc A2 c- | cF A2 ^D B2 E G2 CA- | A^D F2 B,A GFG EGB | eA c2 F d2 G B2 Ec- | %236
 cE A2 C E2 A,C ECE | AE F2 E A2 E F2 EA- | AF d2 Ge cAA/4G/4A/4G/4 A2 z | %239
 z4 z/ C/B/C/ A/C/G/C/F/C/ ^E/C/^D/C/E/C/ | F/C/^E/C/F/C/ G/C/F/C/E/C/ F/C/G/C/A/C/ GC z | %241
 z/ F,/^A,/C/F/^A/ d3 z/ E,/G,/B,/E/G/ c3 | z/ D,/F,/A,/D/F/ B3 z/ C,/^E,/G,/C/^E/ A3 | %243
 A/G/F/E/D/C/ B3- B/A/G/F/E/D/ c3- | %244
 c/B/A/G/F/^E/ F/=E/D/C/B,/A,/ G,/F,/G,/A,/G,/A,/ B,/A,/B,/C/B,/C/ | F^EF A,CF FEF A,CF | %246
 GFG C^EG AGA F2 z | z2 ^A ^d4 G^B cC z | z2 G c4 F^A B3- | B^EG A4 ^DF G3- | %250
 GCE F3- F/G/F/E/^D/E/ F/E/F/G/F/G/ | E/G/^D/G/C/G/ ^B,/G/^A,/G/B,/G/ C/G/B,/G/C/G/ D/G/C/G/D/G/ | %252
 E/G/^D/G/E/G/ F/G/E/G/D/G/ E/G/D/G/C/G/ ^B,/G,/B,/D/G/F/ | %253
 E3- E/F,/A,/C/F/E/ ^D3- D/E,/G,/B,/E/D/ | C3- C/^D,/F,/^A,/^D/C/ ^B,3- B,/C/D/E/F/G/ | %255
 A3- A/^D/E/F/G/^A/ B3- B/E/F/G/A/^B/ | c>EF/G/ A/G/F/E/^D/C/ ^B,/^A,/B,/C/B,/C/ D/C/D/E/D/E/ | %257
 CG, A,2 G, C2 G, A,2 G,C- | C^A, F2 ^B,G ECC/4B,/4C/4B,/4 C2 E | AGA CEA AGA CEA | %260
 BAB EGB cBc A2 c- | cF A2 ^D B2 E G2 CA- | A^D F2 B,A GFG EGB | eA c2 F d2 G B2 Ec- | %264
 cE A2 C E2 A,C ECE | AE F2 E A2 E F2 EA- | AF d2 Ge cAG A2 z | %267
 z/ z E/F/G/ A/G/A z/ z2 E/F/G/ A/G/A z | z/ z F/G/A/ B/A/B/A/G/F/ E/D/E/F/E/D/ C/B,/C/D/E/C/ | %269
 F/G/A/G/F/E/ ^D/C/B,/C/D/B,/ E/F/G/F/E/D/ C/B,/A,/B,/C/A,/ | %270
 ^D/E/F/E/D/C/ B,/C/D/C/B,/A,/ B,/E/D/C/B,/A,/ G,/A,/B,/A,/G,/F,/ | E,2 E G,B,E E^DE G,B,E | %272
 FEF B,^DF GFG E>B,C/D/ | E/^D/E z/ z2 B,/C/D/ E/D/E z/ z2 C/D/E/ | %274
 F/E/F/E/^D/C/ B,DF G/F/G/A/G/F/ EB,G- | GC E2 ^A, F2 B, ^D2 G,E- | E^A, C2 F,E ^DCD B,DF | %277
 BE G2 C A2 ^D F2 B,G- | %278
 G/E/^D/C/B,/A,/ G,/C/B,/A,/G,/F,/ E,/B,,/C,/^D,/E,/F,/ G,/F,/E,/F,/G,/A,/ | %279
 B,E, C2 B, E2 B, C2 B,E- | EC A2 ^DB GEE/4D/4E/4D/4 E2 B, | E4 ^A,C D/E/F/E/D/C/ D/C/B,/D/C/E/ | %282
 D4 G,B, C/D/E/D/C/B,/ CA,C | F4 B,D E4 A,C | D4 G,B, C/B,/C/D/E/F/ B,E,e- | e B2 cB e2 B c2 BE | %286
 B/c/d/c/B/A/ G/A/B/A/G/F/ E/F/G/A/B/G/ A A,2 | =GC E2 A, C2 E G2 F z | z z4 G2 C B2 A z | %289
 D2 B, E2 C F>ED/C/ B,/A,/G,/F,/E,/D,/ | C, z/ E,/F,/G,/ A,/G,/A, z/ z2 E,/F,/G,/ A,/G,/A, z | %291
 z/ z F,/G,/A,/ B,/A,/B,/A,/G,/F,/ E,/D,/E,/F,/E,/D,/ C,2 e- | eA c2 F d2 G B2 Ec | %293
 cE A2 C E2 A,C ECE | AE F2 E/D/C/B,/ C/D/E/D/C/B,/ A,/B,/C/B,/A,/G,/ | %295
 F,/G,/A,/C/B,/A,/ G,/A,/B,/D/C/B,/ A,/G,/A,/C/B,/D/ C/E/C/A,/C/E/ | AGA CEA AGA CEA | %297
 BAB EGB cBc A2 c- | cF A2 ^D B2 E G2 CA- | A^D F2 B,A GFG EGB | eA c2 F d2 G B2 Ec- | %301
 cE A2 C E2 A,C ECE | AE F2 E A2 E F2 EA- | AF d2 Ge cAA/4G/4A/4G/4 !fermata!A2 z |] %304
V:4
 A,,A,,A,,A,, A,,A,,A,,A,, | A,,A,,A,,A,, A,,A,,A,,A,, | A,,A,,A,,A,, A,,A,,A,,A,, | %3
 A,,A,,A,,A,, A,,A,,A,,A,, | D,D,D,D, D,D,D,D, | D,D,D,D, D,D,D,D, | D,D,D,D, D,D,D,D, | %7
 D,D,D,D, C,C,C,C, | C,C,C,C, F,F,F,F, | E,E,E,E, E,E,E,E, | E,E,E,E, E,E,E,E, | %11
 E,E,E,E, E,E,E,E, | E,E,E,E, E,E,E,E, | E,E,E,E, E,E,E,E, | E,E,E,E, E,E,E,E, | %15
 E,E,D,D, C,>D, E,E,,/E,/ | A,A,/G,/ A,A,/G,/ A,/E,/C,/D,/ E,/C,/A,,/B,,/ | %17
 C,A,,/B,,/ C,C,/D,/ E,E,/D,/ E,E,/D,/ | E,E,/D,/ C,C,/B,,/ A,,A,A,A, | %19
 A,G,/F,/ E,/D,/C,/B,,/ A,,A,,A,,A,, | A,,2 z2 z4 | z8 | z8 | z8 | E,,E,,E,,E,, E,,E,,E,,E,, | %25
 E,,E,,E,,E,, E,,E,,E,,E,, | A,,A,,A,,A,, D,D,D,D, | E,A,,E,E,, A,,A,,/B,,/ C,E, | %28
 A,A,/G,/ A,A,/G,/ A,E,C,E, | A,,A,,/G,,/ A,,A,,/G,,/ A,,2 z A,, | %30
 D,/F,/D,/C,/ D,/F,/D,/C,/ B,,2 z B, | EE/^D/ EE/D/ E/B,/G,/A,/ B,/G,/E,/F,/ | %32
 G,E,/F,/ G,G,/A,/ B,B,/A,/ B,B,/A,/ | B,B,/A,/ G,G,/F,/ E,E,E,E, | %34
 E,^D,/C,/ B,,/A,,/G,,/F,,/ E,,E,,E,,E,, | E,,2 z2 z4 | z8 | z8 | z8 | E,E,E,E, B,,B,,B,,B,, | %40
 G,,G,,G,,G,, E,,E,,E,,E,, | A,,A,,A,,A,, G,,G,,G,,G,, | =F,,F,,F,,F,, C,,C,,C,,C,, | %43
 F,,F,,F,,F,, C,C,C,C, | ^A,,A,,A,,A,, F,,F,,F,,F,, | B,,B,,B,,B,, B,,B,,B,,B,, | %46
 B,,B,,B,,B,, B,,B,,B,,B,, | B,,B,,B,,B,, B,,B,,B,,B,, | B,,B,,B,,B,, E,,E,,E,,E,, | %49
 F,,F,,F,,F,, F,,F,,F,,F,, | F,,F,,F,,F,, E,,E,,E,,E,, | D,,E,,E,,F,, B,,B,,B,,B,, | %52
 F,F,F,F, ^D,D,D,D, | B,,B,,B,,B,, E,E,E,E, | ^D,D,D,D, ^B,,B,,B,,B,, | %55
 G,,G,,G,, [G,,G,] CC/^B,/ CC/B,/ | C/G,/E,/F,/ G,/E,/C,/^D,/ E,C,/D,/ E,E,/F,/ | %57
 G,G,/F,/ G,G,/F,/ G,G,/F,/ E,E,/^D,/ | C,[C,C][C,C][C,C] C^B,/^A,/ G,/F,/E,/^D,/ | %59
 C,C,C,C, C,^B,,/^A,,/ G,,/F,,/E,,/^D,,/ | C,,C,,C,,C,, C,, z z2 | z8 | z8 | z8 | %64
 z z4 F,,/G,,/ A,,C, | F,F,/^E,/ F,F,/E,/ F,C,A,,C, | F,,F,,/^E,,/ F,,F,,/E,,/ F,,2 z F,, | %67
 B,,/^D,/B,,/A,,/ B,,/D,/B,,/A,,/ G,,2 z G, | C/B,/A,/B,/ C/B,/A,/G,/ A,/G,/F,/G,/ A,F, | %69
 B,F, B,/A,/B, z B, D/C/D | z C, C/B,/C z F, C/B,/C | %71
 z/ A,/G,/F,/ ^E,/F,/^D,/E,/ F,=D,/B,,/ C,C,, | F,,F,,F,,F,, F,,F,,F,,F,, | %73
 F,,F,,F,,F,, F,,F,,F,,F,, | F,,F,,F,,F,, F,,F,,F,,F,, | B,,B,,B,,B,, B,,B,,B,,B,, | %76
 C,C,C,C, C,C,C,C, | C,C,C,C, C,C,C,C, | C,C,^E,,E,, F,,B,,C,C,, | %79
 F,,/^E,,/F,,/G,,/ ^A,,/B,,/C,/D,/ =E,F,,E,F,, | E,/F,/E,/C,/ E,/F,/E,/C,/ ^A,,F,F,,F, | %81
 B,,/F,,/G,,/^A,,/ B,,/A,,/B,,/C,/ D,E,,D,E,, | D,/E,/D,/B,,/ D,/E,/D,/B,,/ G,,E,E,,E, | %83
 A,,A,,A,,A,, E,E,E,E, | C,C,C,C, A,,A,,A,,A,, | D,,D,,D,,D,, D,,D,,D,,D,, | %86
 D,,D,,D,,D,, D,,D,,D,,D,, | D,,D,,D,,D,, D,,D,,D,,D,, | =G,,G,,G,,G,, A,,A,,A,,A,, | %89
 A,,A,,A,,A,, A,,A,,A,,A,, | B,,=G,,A,,A,, D,/E,/F,/=G,/ F,/E,/D,/C,/ | %91
 B,,/C,/D,/E,/ D,/C,/B,,/A,,/ G,,/A,,/B,,/C,/ B,,/A,,/G,,/F,,/ | %92
 E,,E,,E,,E,, A,,/B,,/C,/D,/ C,/B,,/A,,/G,,/ | %93
 F,,/G,,/A,,/B,,/ A,,/G,,/F,,/E,,/ ^D,,/E,,/F,,/G,,/ F,,/E,,/D,,/C,,/ | B,,,B,,,B,,,B,,, E,,2 z2 | %95
 z8 | z8 | z8 | z8 | z8 | z8 | z z2 A,, E,E,/^D,/ E,E,/=D,/ | %102
 C,/E,/C,/D,/ E,/C,/A,,/B,,/ C,A,,/B,,/ C,C,/D,/ | E,E,/D,/ E,E,/D,/ E,E,/D,/ C,C,/B,,/ | %104
 A,,A,A,A, A,G,/F,/ E,/D,/C,/B,,/ | A,,A,,A,,A,, A,,2 z2 | z8 | z8 | z8 | %109
 z z2 E, A,/B,/C/B,/ A,/G,/F,/E,/ | D,/A,/B,/C/ D/C/B,/A,/ B,2 z B, | %111
 C/D/E/D/ C/B,/A,/G,/ A,2 z A, | B,/C/B,/A,/ G,/E,/F,/G,/ A,/B,/A,/G,/ F,/G,/F,/E,/ | %113
 D,/B,,/C,/D,/ E,/C,/D,/E,/ A,,A,,A,,A,, | A,,A,,A,,A,, A,,A,,A,,A,, | A,,A,,A,,A,, A,,A,,A,,A,, | %116
 A,,A,,A,,A,, A,,A,,A,,A,, | A,,A,,A,,A,, D,D,D,D, | D,D,D,D, D,D,D,D, | D,D,D,D, D,D,D,D, | %120
 D,D,D,D, D,D,D,D, | C,C,C,C, C,C,C,C, | F,F,F,F, E,E,E,E, | E,E,E,E, E,E,E,E, | %124
 E,E,E,E, E,E,E,E, | E,E,E,E, E,E,E,E, | E,E,E,E, E,E,E,E, | E,E,E,E, E,E,E,E, | %128
 E,E,E,E, E,E,D,D, | C,>D, E,E,, !fermata!A,,2 z2 | z8 |[M:12/8] [D,,D,]4 [F,,F,]4 [=G,,=G,]4 | %132
 [A,,A,]8 [B,,B,]4 | [=G,,=G,]4 [E,,E,]4 [A,,A,]4 | [D,,D,]4 [C,,C,]4 [B,,,B,,]4 | %135
 [A,,,A,,]4 [C,,C,]4 [D,,D,]4 | [E,,E,]8 [F,,F,]4 | [D,,D,]8 [E,,E,]4 | %138
 [A,,,A,,]4 [A,,A,]4 [=G,,=G,]4 | [F,,F,]4 [E,,E,]4 [D,,D,]4 | %140
 [C,,C,]2 [D,,D,]2 [E,,E,]4 [E,,,E,,]4 | [A,,,A,,]4 [C,,C,]4 [D,,D,]4 | [E,,E,]8 [F,,F,]4 | %143
 [D,,D,]8 [E,,E,]4 | [A,,,A,,]4 [F,,,F,,]4 [=G,,,=G,,]4 | [A,,,A,,]8 [B,,,B,,]4 | %146
 [=G,,,=G,,]4- [G,,,G,,]4 [A,,,A,,]4 | [D,,,D,,]4 [D,,D,]4 [=C,,=C,]4 | %148
 [B,,,B,,]4 [A,,,A,,]4 [=G,,,=G,,]4 | [F,,,F,,]2 [=G,,,=G,,]2 [A,,,A,,]4 [A,,,A,,]4 | %150
 [D,,,D,,]4 [D,,D,]4 [E,,E,]4 | [F,,F,]8 [=G,,=G,]4 | [E,,E,]4 [C,,C,]4 [F,,F,]4 | [B,,,B,,]12- | %154
 [B,,,B,,]4 [=G,,,=G,,]4 [A,,,A,,]4 | [B,,,B,,]8 [=C,,=C,]4 | [A,,,A,,]8 [B,,,B,,]4 | %157
 [E,,,E,,]4 [E,,E,]4 [D,,D,]4 | [=C,,=C,]4 [B,,,B,,]4 [A,,,A,,]4 | %159
 [=G,,,=G,,]2 [A,,,A,,]2 [B,,,B,,]4 [B,,,,B,,,]4 | [E,,,E,,]12 | [A,,,A,,]8 [B,,,B,,]4 | %162
 [=G,,,=G,,]8 [A,,,A,,]4 | [D,,,D,,]12- | [D,,,D,,]4 [B,,,B,,]4 [=C,,=C,]4 | [D,,D,]8 [E,,E,]4 | %166
 [=C,,=C,]8 [D,,D,]4 | [=G,,,=G,,]4 [G,,=G,]4 [=F,,=F,]4 | [E,,E,]4 [D,,D,]4 [=C,,=C,]4 | %169
 [B,,,B,,]2 [=C,,=C,]2 [D,,D,]4 [D,,,D,,]4 | [=G,,,=G,,]4 [G,,=G,]4 [B,,B,]4 | %171
 D,,/4C,,/4D,,/4C,,/4D,,/4C,,/4D,,/4C,,/4D,,/4C,,/4D,,/4C,,/4 D,,/4C,,/4D,,/4C,,/4D,,/4C,,/4D,,/4C,,/4D,,/4C,,/4D,,/4C,,/4 D,,/4C,,/4D,,/4C,,/4D,,/4C,,/4B,,,/4C,,/4 ^D,,4 | %172
 z4 E,,4 =G,,4 | %173
 B,,,/4^A,,,/4B,,,/4A,,,/4B,,,/4A,,,/4B,,,/4A,,,/4B,,,/4A,,,/4B,,,/4A,,,/4 B,,,/4A,,,/4B,,,/4A,,,/4B,,,/4A,,,/4B,,,/4A,,,/4B,,,/4A,,,/4B,,,/4A,,,/4 B,,,/4A,,,/4B,,,/4A,,,/4B,,,/4A,,,/4G,,,/4A,,,/4 B,,,4 | %174
 z4 [B,,,B,,]4 [D,,D,]4 | %175
 [F,,,F,,]/4[^E,,,^E,,]/4[F,,,F,,]/4[E,,,E,,]/4[F,,,F,,]/4[E,,,E,,]/4[F,,,F,,]/4[E,,,E,,]/4[F,,,F,,]/4[E,,,E,,]/4[F,,,F,,]/4[E,,,E,,]/4 [F,,,F,,]/4[E,,,E,,]/4[F,,,F,,]/4[E,,,E,,]/4[F,,,F,,]/4[E,,,E,,]/4[F,,,F,,]/4[E,,,E,,]/4[F,,,F,,]/4[E,,,E,,]/4[F,,,F,,]/4[E,,,E,,]/4 [F,,,F,,]/4[E,,,E,,]/4[F,,,F,,]/4[E,,,E,,]/4[F,,,F,,]/4[E,,,E,,]/4[^D,,,^D,,]/4[E,,,E,,]/4 [F,,,F,,]4 | %176
 z2 [F,,,F,,]2 [G,,,G,,]2 [A,,,A,,]2 [B,,,B,,]4- | %177
 [B,,,B,,]2 [A,,,A,,] [G,,,G,,] A,,,4 [B,,,B,,]4 | [C,,C,]4 [F,,,F,,]4 [B,,,B,,]4 | %179
 [C,,C,]8 [D,,D,]4 | [B,,,B,,]8 [C,,C,]4 | [F,,,F,,]4 [F,,F,]4 [E,,E,]4 | %182
 [D,,D,]4 [C,,C,]4 [B,,,B,,]4 | [A,,,A,,]2 [B,,,B,,]2 [C,,C,]4 [B,,,B,,]4 | [^A,,,A,,]4 z8 | %185
 [A,,,A,,]4 z4 z4 | [G,,,G,,]2 [C,,,C,,]2 [G,,,G,,]2 [B,,,B,,][A,,,A,,] [B,,,B,,]2 [B,,,B,,]2 | %187
 [B,,,B,,]4 [A,,,A,,]2 [G,,,G,,]2 [F,,,F,,]2 [G,,,G,,]2 | %188
 [A,,,A,,]2 [B,,,B,,]2 [C,,C,]2 [B,,,B,,]2 [C,,C,]2 [C,,,C,,]2 | [F,,,F,,]4 z4 [B,,,B,,]4 | %190
 [E,,,E,,]4 z8 | [D,,,D,,]4 z4 [D,,,D,,]4 | !fermata![C,,,C,,]12 | z12 | A,2 z G,2 z F,2 z E,2 z | %195
 D,2 z E,2 z A,,2 E, A,G,A, | ^D,2 z B,,2 z C,2 z A,,2 z | B,,2 A,, G,,2 F,, E,,2 B,, E,D,E, | %198
 C,2 z F,2 z B,,2 z E,2 z | A,,2 A, A,,2 A, A,,2 A, A,,2 A, | A,,2 z A,2 z A,,2 z A,2 A,, | %201
 D,2 B,, E,2 G,, A,,C,E, A,C,E, | A,,C,E, G,,C,E, F,,A,,C, E,,A,,C, | %203
 D,,F,,B,, G,,B,,E,, A,,C,E, A,G,A, | ^D,F,D, B,,G,B,, C,E,C, A,,F,A,, | %205
 B,,2 A,, G,,2 F,, E,,2 z4 | E,2 z ^D,2 z C,2 z B,,2 z | A,,2 z B,,2 z E,,4 G,,B,, | %208
 E,G,B, ^D,G,B, C,E,G, B,,E,G, | A,,C,F, ^D,F,B,, E,,G,,B,, E,D,E, | %210
 ^A,,C,A,, F,,^D,F,, G,,B,,G,, E,,C,E,, | F,,2 E,, ^D,,2 C,, B,,,2 z4 | %212
 G,,2 z C,2 z F,,2 z B,,2 z | E,,2 E, E,,2 E, E,,2 E, E,,2 E, | E,,2 z E,2 z E,,2 z E,2 E,, | %215
 A,,2 F,, B,,2 ^D, E,G,B, E,/F,/G,/F,/E,/=D,/ | %216
 C,/D,/E,/D,/C,/B,,/ ^A,,/C,/F,/E,/D,/C,/ B,,D,F, B,D,F, | %217
 B,,/C,/D,/C,/B,,/A,,/ G,,/B,,/E,/D,/C,/B,,/ A,,C,E, A,/B,/A,/G,/F,/E,/ | %218
 D,/E,/F,/E,/D,/C,/ B,,/D,/G,/F,/E,/D,/ C,/D,/E,/D,/C,/B,,/ A,,/C,/F,/E,/D,/C,/ | %219
 B,,/C,/D,/C,/B,,/A,,/ G,,/B,,/E,/D,/C,/B,,/ A,,/G,,/A,,/B,,/C,/D,/ E,/^D,/E,/B,,/G,,/B,,/ | %220
 E,,2 z E,2 z E,,2 z E,/B,,/C,/D,/E,/F,/ | %221
 G,/A,/B,/A,/G,/F,/ E,/F,/G,/F,/E,/D,/ C,/D,/E,/D,/C,/B,,/ A,,/E,/F,/G,/A,/B,/ | %222
 C/D/E/D/C/B,/ A,/B,/C/B,/A,/=G,/ F,/G,/A,/G,/F,/E,/ D,/E,/F,/E,/D,/C,/ | %223
 B,,/C,/^D,/C,/D,/B,,/ E,/F,/G,/F,/E,/=D,/ C,/^D,/^E,/D,/E,/C,/ F,/E,/F,/G,/A,/F,/ | %224
 G,/F,/G,/A,/B,/G,/ A,/G,/A,/B,/C/A,/ D,/C,/D,/E,/F,/D,/ E,E,,E, | %225
 A,,C,E, G,,C,E, F,,A,,C, E,,A,,C, | D,,F,,B,, G,,B,,E,, A,,C,E, A,G,A, | %227
 C,2 z F,2 z B,,2 z E,2 z | A,,2 A, A,,2 A, A,,2 A, A,,2 A, | A,,2 z A,2 z A,,2 z A,2 A,, | %230
 D,2 B,, E,2 G, A,C,E, A,,2 z | A,2 z G,2 z F,2 z E,2 z | D,2 z E,2 z A,,2 E, A,G,A, | %233
 ^D,2 z B,,2 z C,2 z A,,2 z | B,,2 A,, G,,2 F,, E,,2 B,, E,D,E, | C,2 z F,2 z B,,2 z E,2 z | %236
 A,,2 A, A,,2 A, A,,2 A, A,,2 A, | A,,2 z A,2 z A,,2 z A,2 A,, | D,2 B,, E,2 G,, A,,C,E, A,,2 z | %239
 C,2 C C,2 C C,2 C C,2 C | C,2 C C,2 C C,2 C C,2 B,, | ^A,,2 z B,,2 z G,,2 z =A,,2 z | %242
 F,,2 z G,,2 z ^E,,2 z F,,2 z | B,,2 z G,,2 z C,2 z A,,2 z | D,2 z B,,2 z C,2 z C,,2 z | %245
 F,2 z E,2 z D,2 z C,2 z | B,,2 z C,2 z F,,2 C, F,/G,/A,/G,/F,/E,/ | %247
 ^D,/E,/F,/E,/D,/C,/ ^B,,/D,/G,/F,/E,/D,/ C,E,G, CE,G, | %248
 C,/D,/E,/D,/C,/B,,/ ^A,,/C,/F,/E,/D,/C,/ B,,D,F, B,/C/B,/A,/G,/F,/ | %249
 ^E,/G,/C/B,/A,/G,/ F,/G,/A,/G,/F,/=E,/ ^D,/F,/B,/A,/G,/F,/ E,/F,/G,/F,/E,/=D,/ | %250
 C,/E,/A,/G,/F,/E,/ ^D,/E,/F,/E,/D,/C,/ ^B,,C,D, G,,2 B,, | C,2 z G,,2 z C,,2 z G,,2 z | %252
 C,2 z G,2 z C2 z G,2 z | C,2 z F,2 z B,,2 z E,2 z | A,2 z ^D,2 z G,2 z C,2 z | %255
 F,2 z ^D,2 z G,2 z E,2 z | A,2 z F,2 z G,2 z G,,2 z | C,2 z C,,2 z C,2 z C,,2 C, | %258
 F,2 ^D, G,2 ^B,, C,E,,G,, C,,2 z | A,2 z G,2 z F,2 z E,2 z | D,2 z E,2 z A,,2 E, A,G,A, | %261
 ^D,2 z B,,2 z C,2 z A,,2 z | B,,2 A,, G,,2 F,, E,,2 B,, E,D,E, | C,2 z F,2 z B,,2 z E,2 z | %264
 A,,2 A, A,,2 A, A,,2 A, A,,2 A, | A,,2 z A,2 z A,,2 z A,2 A,, | D,2 B,, E,2 G,, A,,C,E, A,C,E, | %267
 A,,C,E, G,,C,E, F,,A,,C, E,,A,,C, | D,,F,,B,, G,,B,,E,, A,,C,E, A,G,A, | %269
 ^D,F,D, B,,G,B,, C,E,C, A,,F,A,, | B,,2 A,, G,,2 F,, E,,2 z4 | E,2 z ^D,2 z C,2 z B,,2 z | %272
 A,,2 z B,,2 z E,,4 G,,B,, | E,G,B, ^D,G,B, C,E,G, B,,E,G, | A,,C,F, ^D,F,B,, E,,G,,B,, E,D,E, | %275
 ^A,,C,A,, F,,^D,F,, G,,B,,G,, E,,C,E,, | F,,2 E,, ^D,,2 C,, B,,,2 z4 | %277
 G,,2 z C,2 z F,,2 z B,,2 z | E,,2 E, E,,2 E, E,,2 E, E,,2 E, | E,,2 z E,2 z E,,2 z E,2 E,, | %280
 A,,2 F,, B,,2 ^D, E,G,B, E,/F,/G,/F,/E,/=D,/ | %281
 C,/D,/E,/D,/C,/B,,/ ^A,,/C,/F,/E,/D,/C,/ B,,D,F, B,D,F, | %282
 B,,/C,/D,/C,/B,,/A,,/ G,,/B,,/E,/D,/C,/B,,/ A,,C,E, A,/B,/A,/G,/F,/E,/ | %283
 D,/E,/F,/E,/D,/C,/ B,,/D,/G,/F,/E,/D,/ C,/D,/E,/D,/C,/B,,/ A,,/C,/F,/E,/D,/C,/ | %284
 B,,/C,/D,/C,/B,,/A,,/ G,,/B,,/E,/D,/C,/B,,/ A,,/G,,/A,,/B,,/C,/D,/ E,/^D,/E,/B,,/G,,/B,,/ | %285
 E,,2 z E,2 z E,,2 z E,/B,,/C,/D,/E,/F,/ | %286
 G,/A,/B,/A,/G,/F,/ E,/F,/G,/F,/E,/D,/ C,/D,/E,/D,/C,/B,,/ A,,/E,/F,/G,/A,/B,/ | %287
 C/D/E/D/C/B,/ A,/B,/C/B,/A,/=G,/ F,/G,/A,/G,/F,/E,/ D,/E,/F,/E,/D,/C,/ | %288
 B,,/C,/^D,/C,/D,/B,,/ E,/F,/G,/F,/E,/=D,/ C,/^D,/^E,/D,/E,/C,/ F,/E,/F,/G,/A,/F,/ | %289
 G,/F,/G,/A,/B,/G,/ A,/G,/A,/B,/C/A,/ D,/C,/D,/E,/F,/D,/ E,E,,E, | %290
 A,,C,E, G,,C,E, F,,A,,C, E,,A,,C, | D,,F,,B,, G,,B,,E,, A,,C,E, A,G,A, | %292
 C,2 z F,2 z B,,2 z E,2 z | A,,2 A, A,,2 A, A,,2 A, A,,2 A, | A,,2 z A,2 z A,,2 z A,2 A,, | %295
 D,2 B,, E,2 G, A,C,E, A,,2 z | A,2 z G,2 z F,2 z E,2 z | D,2 z E,2 z A,,2 E, A,G,A, | %298
 ^D,2 z B,,2 z C,2 z A,,2 z | B,,2 A,, G,,2 F,, E,,2 B,, E,D,E, | C,2 z F,2 z B,,2 z E,2 z | %301
 A,,2 A, A,,2 A, A,,2 A, A,,2 A, | A,,2 z A,2 z A,,2 z A,2 A,, | %303
 D,2 B,, E,2 G,, A,,C,E, !fermata!A,,2 z |] %304
V:5
 CCCC CCCC | CCCC CCCC | CCCC CCCC | CCCC CCCC | DDDD B,B,B,B, | B,B,B,B, B,B,B,B, | %6
 B,B,B,B, B,B,B,B, | B,B,B,B, CCCC | EEEE ECDD | EEEE EEEE | EEEE EEEE | CCCC CCCC | CCCC CCCC | %13
 ^DDDD DDDD | ^DDDD DDDD | B,B,B,B, C>B, CE | E2 z2 z2 z E, | A,A,/G,/ A,A,/G,/ A,E,C,E, | %18
 E,C/B,/ A,E/D/ CE/D/ EE/D/ | CE/D/ C/B,/A,/G,/ A,A,A,A, | A,/B,/C/B,/ A,/=G,/F,/E,/ D, A, D/C/D | %21
 z B, E/D/E z A, =G/F/G | z A, D/C/D z B, G/F/G | z C F/E/F- F/^D/E/C/ B,A, | G,B,B,B, B,B,B,B, | %25
 B,B,B,B, B,B,B,B, | A,A,A,A, A,A,A,A, | ECB,B, B,2 z2 | z8 | z8 | z8 | z4 z2 z B, | %32
 EE/^D/ EE/D/ EB,G,B, | G,G,/F,/ E,B,/A,/ G,B,/A,/ B,B,/A,/ | G,B,/A,/ G,/F,/E,/^D,/ E,E,E,E, | %35
 E,/F,/G,/F,/ E,/D,/C,/B,,/ A,,E, A,/G,/A, | z F, B,/A,/B, z E, D/C/D | z E, A,/G,/A, z F, ^D/C/D | %38
 z B, E/^D/E z B, B,/A,/B, | G,B,/A,/ B,B,/A,/ B,B,B,B, | B,B,B,B, B,B,B,B, | %41
 A,A,/G,/ A,G,/F,/ =F,F,F,F, | G,G,G,G, G,G,G,G, | F,C/B,/ CC/B,/ CCCC | CCCC CCCC | DDDD DDDD | %46
 DDDD B,B,DD | DDDD DDDD | DDDD B,B,CC | F,F,^A,A, CCCC | F,F,^A,A, F,A,CC | %51
 B,B,FE DF,/E,/ F,F,/E,/ | ^D,D,D,D, F,F,F,F, | F,F,F,F, E,E,/^D,/ E,D,/C,/ | %54
 ^B,,B,,B,,B,, ^D,D,D,D, | ^D,D,D,D, C,2 z2 | z z2 G, CC/^B,/ CC/B,/ | CG,E,G, E,E,/^D,/ C,G,/F,/ | %58
 E,G,/F,/ G,G,/F,/ E,G,/F,/ E,/^D,/C,/^B,,/ | C,G,E,G, G,E,/F,/ G,G,/F,/ | %60
 E,G,/F,/ G,G,/F,/ G,/F/E/^D/ C/B,/A,/G,/ | F,C F/E/F z B, E/^D/E | z C F/=F/^F z F G/F/G | %63
 z G, C/^B,/C z A, D/C/D | z/ G,/A,/F,/ ^E,C A,CCC | CCCC CCCC | CCCC C2 z2 | z8 | z8 | z8 | z8 | %71
 z8 | CCCC CCCC | CCCC CCCC | CCCC CCCC | B,B,B,B, DDDD | G,G,G,G, CC^EE | GG^EE CCG,G, | %78
 ^E,E,G,G, A,DCC | C2 z2 z4 | z8 | z8 | z8 | z A,/G,/ A,A,/G,/ A,A,A,A, | A,A,A,A, A,A,CC | %85
 DDFF FFFF | FFFF FFFF | FFFF FFFF | DDEE EEEE | EEEE EEEE | DDA,A, A,A,/=G,/ A,A, | %91
 B,B,/A,/ B,B,/C/ B,/G,/E,/F,/ G,/E,/B,, | E,B,,E,E, E,E,/D,/ E,E, | %93
 F,F,/E,/ F,F,/G,/ F,/^D,/B,,/C,/ D,/B,,/F, | B,F, B,B, B,/A,/G,/F,/ E,/D,/C,/B,,/ | %95
 A,,/G,,/A,, z F, B,/^A,/B, z B, | E/^D/E z E, A,/G,/A, z A, | D/C/D z D G,/F,/G, z E, | %98
 A,/G,/A, z A, D/C/D z G, | C/B,/C z F, B,/A,/B, z E, | A,A,/E,/ C/A,/E- E/B,/G,/E,/ B,/G,/E- | %101
 E/C/A,/E,/ C/A,/ E2 B,/A,/ G,/F,/E, | z2 z E, A,A,/G,/ A,A,/G,/ | A,E,C,E, E,C/B,/ A,E/D/ | %104
 CE/D/ EE/D/ CE/D/ C/B,/A,/G,/ | A,A,A,A, A,/B,/C/B,/ A,/=G,/F,/E,/ | D,A, D/C/D z D B,/A,/B, | %107
 z G, C/B,/C z C A,/G,/A, | z B, G,/F,/G, z A, F,/E,/F,/ z/ | z/ D/E/F/ B,E E2 z2 | z8 | z8 | z8 | %113
 z4 CCCC | CCCC CCCC | CCCC CCCC | CCCC CCCC | CCCC DDDD | B,B,B,B, B,B,B,B, | B,B,B,B, B,B,B,B, | %120
 B,B,B,B, B,B,B,B, | CCCC EEEE | ECDD EEEE | EEEE EEEE | EEB,B, CCCC | CCCC CCCC | CCCC ^DDDD | %127
 ^DDDD DDDD | ^DDDF B,B,B,B, | C>B, CE !fermata!E2 z2 | z8 |[M:12/8] z12 | z12 | z12 | z12 | z12 | %136
 z12 | z12 | z12 | z12 | z12 | z12 | z12 | z12 | z12 | z12 | z12 | z12 | z12 | z12 | z12 | z12 | %152
 z12 | z12 | z12 | z12 | z12 | z12 | z12 | z12 | z12 | z12 | z12 | z12 | z12 | z12 | z12 | z12 | %168
 z12 | z12 | z12 | z12 | z12 | z12 | z12 | z12 | z12 | z12 | z12 | z12 | z12 | z12 | z12 | z12 | %184
 z12 | z12 | z12 | z12 | z12 | z12 | z12 | z12 | z12 | z12 | E2 z E2 z F2 z A2 z | %195
 A2 z G2 z AGA E2 E | F2 z F2 z E2 z E2 z | ^D2 B, B,2 D EDE B,2 E | E2 z E2 z D2 z E2 z | %199
 ECE CA,C A,CE AEA | C2 z D2 z C2 z D2 C | D2 F E2 B AEE E2 z | z12 | z12 | z12 | z12 | %206
 B,2 z B,2 z C2 z E2 z | E2 z ^D2 z EDE B,2 z | z12 | z12 | z12 | z12 | E2 z E2 z E2 z ^D2 z | %213
 E2 z2 z8 | G,2 z A,2 z2 z4 B, | C2 F F,2 F EB,B, B,2 z | z8 F D2 z | z8 E C2 z | %218
 z4 z B, B,3 z2 A, | A,3 z2 G, A,3 z z2 | G2 z A2 z G2 z E2 E | E,2 E E,2 E E,2 G E2 E | %222
 A,2 A A,2 A A,2 A A,2 z | B,2 z B,2 z C2 z C2 z | E2 z A,2 z A,2 z E2 z | z4 z8 | z4 z8 | %227
 A2 z A2 z A2 z G2 z | A2 z2 z8 | C2 z D2 z E2 z4 | z12 | E2 z E2 z F2 z A2 z | %232
 A2 z G2 z AGA E2 E | F2 z F2 z E2 z E2 z | ^D2 B, B,2 D EDE B,2 E | E2 z E2 z D2 z E2 z | %236
 ECE CA,C A,CE AEA | C2 z D2 z C2 z D2 C | D2 F E2 B AEE E2 z | z12 | z12 | z12 | z12 | z12 | z12 | %245
 C2 z C2 z D2 z F2 z | F2 z ^E2 z FEF C2 z | z8 G G2 z | z8 F F2 z | z z4 C F3 z2 B, | %250
 E3 z2 A ^D3 z z2 | G,2 G G,2 G G,2 G G,2 G | G,2 G G,2 G G,2 G G,2 z | z12 | z12 | z12 | z12 | %257
 G,2 z F,2 z E,2 z C,2 z | ^A,2 A, ^B,2 ^D CG,G, G,2 z | E2 z E2 z F2 z A2 z | A2 z G2 z AGA E2 E | %261
 F2 z F2 z E2 z E2 z | ^D2 B, B,2 D EDE B,2 E | E2 z E2 z D2 z E2 z | ECE CA,C A,CE AEA | %265
 C2 z D2 z C2 z D2 C | D2 F E2 B AEE E2 z | z12 | z12 | z12 | z12 | B,2 z B,2 z C2 z E2 z | %272
 E2 z ^D2 z EDE B,2 z | z12 | z12 | z12 | z12 | E2 z E2 z E2 z ^D2 z | E2 z2 z8 | %279
 G,2 z A,2 z2 z4 B, | C2 F F,2 F EB,B, B,2 z | z8 F D2 z | z8 E C2 z | z4 z B, B,3 z2 A, | %284
 A,3 z2 G, A,3 z z2 | G2 z A2 z G2 z E2 E | E,2 E E,2 E E,2 G E2 E | A,2 A A,2 A A,2 A A,2 z | %288
 B,2 z B,2 z C2 z C2 z | E2 z A,2 z A,2 z E2 z | z12 | z12 | A2 z A2 z A2 z G2 z | A2 z2 z8 | %294
 C2 z D2 z E2 z4 | z12 | E2 z E2 z F2 z A2 z | A2 z G2 z AGA E2 E | F2 z F2 z E2 z E2 z | %299
 ^D2 B, B,2 D EDE B,2 E | E2 z E2 z D2 z E2 z | ECE CA,C A,CE AEA | C2 z D2 z C2 z D2 C | %303
 D2 F E2 B AEE !fermata!E2 z |] %304
V:6
 A,,,A,,,A,,,A,,, A,,,A,,,A,,,A,,, | A,,,A,,,A,,,A,,, A,,,A,,,A,,,A,,, | %2
 A,,,A,,,A,,,A,,, A,,,A,,,A,,,A,,, | A,,,A,,,A,,,A,,, A,,,A,,,A,,,A,,, | %4
 D,,D,,D,,D,, D,,D,,D,,D,, | D,,D,,D,,D,, D,,D,,D,,D,, | D,,D,,D,,D,, D,,D,,D,,D,, | %7
 D,,D,,D,,D,, C,,C,,C,,C,, | C,,C,,C,,C,, F,,F,,F,,F,, | E,,E,,E,,E,, E,,E,,E,,E,, | %10
 E,,E,,E,,E,, E,,E,,E,,E,, | E,,E,,E,,E,, E,,E,,E,,E,, | E,,E,,E,,E,, E,,E,,E,,E,, | %13
 E,,E,,E,,E,, E,,E,,E,,E,, | E,,E,,E,,E,, E,,E,,E,,E,, | E,,E,,D,,D,, C,,>D,, E,,E,,, | %16
 [A,,,A,,][A,,,A,,][A,,,A,,][A,,,A,,] [A,,,A,,][A,,,A,,][A,,,A,,][A,,,A,,] | %17
 [A,,,A,,][A,,,A,,][A,,,A,,][A,,,A,,] [A,,,A,,][A,,,A,,][A,,,A,,][A,,,A,,] | %18
 A,,,A,,,A,,,A,,, A,,,A,,A,,A,, | A,,G,,/F,,/ E,,/D,,/C,,/B,,,/ A,,,A,,,A,,,A,,, | A,,,2 z2 z4 | %21
 z8 | z8 | z8 | E,,,E,,,E,,,E,,, E,,,E,,,E,,,E,,, | E,,,E,,,E,,,E,,, E,,,E,,,E,,,E,,, | %26
 A,,,A,,,A,,,A,,, D,,D,,D,,D,, | E,,A,,,E,,E,,, [A,,,A,,]2 z2 | z8 | z8 | z8 | %31
 E,,E,,E,,E,, E,,E,,E,,E,, | [E,,E,][E,,E,][E,,E,][E,,E,] [E,,E,][E,,E,][E,,E,][E,,E,] | %33
 [E,,E,][E,,E,][E,,E,][E,,E,] [E,,E,][E,,E,][E,,E,][E,,E,] | %34
 E,,^D,,/C,,/ B,,,/A,,,/G,,,/F,,,/ E,,,E,,,E,,,E,,, | E,,,2 z2 z4 | z8 | z8 | z8 | %39
 E,,E,,E,,E,, B,,,B,,,B,,,B,,, | G,,,G,,,G,,,G,,, E,,,E,,,E,,,E,,, | %41
 A,,,A,,,A,,,A,,, G,,,G,,,G,,,G,,, | =F,,,F,,,F,,,F,,, C,,,C,,,C,,,C,,, | %43
 F,,,F,,,F,,,F,,, C,,C,,C,,C,, | ^A,,,A,,,A,,,A,,, F,,,F,,,F,,,F,,, | %45
 B,,,B,,,B,,,B,,, B,,,B,,,B,,,B,,, | B,,,B,,,B,,,B,,, B,,,B,,,B,,,B,,, | %47
 B,,,B,,,B,,,B,,, B,,,B,,,B,,,B,,, | B,,,B,,,B,,,B,,, E,,,E,,,E,,,E,,, | %49
 F,,,F,,,F,,,F,,, F,,,F,,,F,,,F,,, | F,,,F,,,F,,,F,,, E,,,E,,,E,,,E,,, | %51
 D,,,E,,,E,,,F,,, B,,,B,,,B,,,B,,, | F,,F,,F,,F,, ^D,,D,,D,,D,, | B,,,B,,,B,,,B,,, E,,E,,E,,E,, | %54
 ^D,,D,,D,,D,, ^B,,,B,,,B,,,B,,, | G,,,G,,,G,,,G,,, [C,,,C,,][C,,,C,,][C,,,C,,][C,,,C,,] | %56
 [C,,,C,,][C,,,C,,][C,,,C,,][C,,,C,,] [C,,,C,,][C,,,C,,][C,,,C,,][C,,,C,,] | %57
 [C,,,C,,][C,,,C,,][C,,,C,,][C,,,C,,] [C,,,C,,][C,,,C,,][C,,,C,,][C,,,C,,] | %58
 C,,C,,C,,C,, C,^B,,/^A,,/ G,,/F,,/E,,/^D,,/ | C,,C,,C,,C,, C,,^B,,,/^A,,,/ G,,,/F,,,/E,,,/^D,,,/ | %60
 C,,,C,,,C,,,C,,, C,,, z z2 | z8 | z8 | z8 | z4 [F,,,F,,][F,,,F,,][F,,,F,,][F,,,F,,] | %65
 [F,,,F,,][F,,,F,,][F,,,F,,][F,,,F,,] [F,,,F,,][F,,,F,,][F,,,F,,][F,,,F,,] | %66
 [F,,,F,,][F,,,F,,][F,,,F,,][F,,,F,,] F,,F,,, z2 | z8 | z8 | z8 | z8 | z8 | %72
 F,,,F,,,F,,,F,,, F,,,F,,,F,,,F,,, | F,,,F,,,F,,,F,,, F,,,F,,,F,,,F,,, | %74
 F,,,F,,,F,,,F,,, F,,,F,,,F,,,F,,, | B,,,B,,,B,,,B,,, B,,,B,,,B,,,B,,, | %76
 C,,C,,C,,C,, C,,C,,C,,C,, | C,,C,,C,,C,, C,,C,,C,,C,, | C,,C,,^E,,,E,,, F,,,B,,,C,,C,,, | %79
 [F,,,F,,]2 z2 z4 | z8 | z8 | z8 | z8 | z8 | D,,,D,,,D,,,D,,, D,,,D,,,D,,,D,,, | %86
 D,,,D,,,D,,,D,,, D,,,D,,,D,,,D,,, | D,,,D,,,D,,,D,,, D,,,D,,,D,,,D,,, | %88
 =G,,,G,,,G,,,G,,, A,,,A,,,A,,,A,,, | A,,,A,,,A,,,A,,, A,,,A,,,A,,,A,,, | %90
 [B,,,B,,][=G,,,=G,,][A,,,A,,][A,,,A,,] [D,,D,][D,,D,][D,,D,][D,,D,] | %91
 [B,,,B,,][B,,,B,,][B,,,B,,][B,,,B,,] [G,,,G,,][G,,,G,,][G,,,G,,][G,,,G,,] | %92
 E,,,E,,,E,,,E,,, [A,,,A,,][A,,,A,,][A,,,A,,][A,,,A,,] | %93
 [F,,,F,,][F,,,F,,][F,,,F,,][F,,,F,,] [^D,,,^D,,][D,,,D,,][D,,,D,,][D,,,D,,] | %94
 B,,,,B,,,,B,,,,B,,,, E,,,2 z2 | z8 | z8 | z8 | z8 | z8 | z8 | z8 | %102
 [A,,,A,,][A,,,A,,][A,,,A,,][A,,,A,,] [A,,,A,,][A,,,A,,][A,,,A,,][A,,,A,,] | %103
 [A,,,A,,][A,,,A,,][A,,,A,,][A,,,A,,] [A,,,A,,][A,,,A,,][A,,,A,,][A,,,A,,] | %104
 A,,,A,,A,,A,, A,,G,,/F,,/ E,,/D,,/C,,/B,,,/ | A,,,A,,,A,,,A,,, A,,,2 z2 | z8 | z8 | z8 | z8 | z8 | %111
 z8 | z8 | z4 A,,,A,,,A,,,A,,, | A,,,A,,,A,,,A,,, A,,,A,,,A,,,A,,, | %115
 A,,,A,,,A,,,A,,, A,,,A,,,A,,,A,,, | A,,,A,,,A,,,A,,, A,,,A,,,A,,,A,,, | %117
 A,,,A,,,A,,,A,,, D,,D,,D,,D,, | D,,D,,D,,D,, D,,D,,D,,D,, | D,,D,,D,,D,, D,,D,,D,,D,, | %120
 D,,D,,D,,D,, D,,D,,D,,D,, | C,,C,,C,,C,, C,,C,,C,,C,, | F,,F,,F,,F,, E,,E,,E,,E,, | %123
 E,,E,,E,,E,, E,,E,,E,,E,, | E,,E,,E,,E,, E,,E,,E,,E,, | E,,E,,E,,E,, E,,E,,E,,E,, | %126
 E,,E,,E,,E,, E,,E,,E,,E,, | E,,E,,E,,E,, E,,E,,E,,E,, | E,,E,,E,,E,, E,,E,,D,,D,, | %129
 C,,>D,, E,,E,,, !fermata!A,,,2 z2 | z8 |[M:12/8] z12 | z12 | z12 | z12 | z12 | z12 | z12 | z12 | %139
 z12 | z12 | z12 | z12 | z12 | z12 | z12 | z12 | z12 | z12 | z12 | z12 | z12 | z12 | z12 | z12 | %155
 z12 | z12 | z12 | z12 | z12 | z12 | z12 | z12 | z12 | z12 | z12 | z12 | z12 | z12 | z12 | z12 | %171
 z12 | z12 | z12 | z12 | z12 | z12 | z12 | z12 | z12 | z12 | z12 | z12 | z12 | z12 | z12 | z12 | %187
 z12 | z12 | z12 | z12 | z12 | z12 | z12 | A,,2 z G,,2 z F,,2 z E,,2 z | %195
 D,,2 z E,,2 z A,,,2 E,, A,,G,,A,, | ^D,,2 z B,,,2 z C,,2 z A,,,2 z | %197
 B,,,2 A,,, G,,,2 F,,, E,,,2 B,,, E,,D,,E,, | C,,2 z F,,2 z B,,,2 z E,,2 z | %199
 A,,,2 A,, A,,,2 A,, A,,,2 A,, A,,,2 A,, | A,,,2 z A,,2 z A,,,2 z A,,2 A,,, | %201
 D,,2 B,,, E,,2 G,,, A,,,C,,E,, A,,C,,E,, | A,,,2 z2 z8 | z12 | z12 | z12 | %206
 E,,2 z ^D,,2 z C,,2 z B,,,2 z | A,,,2 z B,,,2 z E,,,4- E,,, z | z12 | z12 | z12 | z12 | %212
 G,,,2 z C,,2 z F,,,2 z B,,,2 z | E,,,2 z2 z8 | E,,,2 z E,,2 z2 z4 E,,, | %215
 A,,,2 F,,, B,,,2 ^D,, E,,G,,,B,,, E,,,2 z | z8 F,,, B,,,2 z | z8 E,,, A,,,2 z | %218
 z4 z B,,, C,,3 z2 A,,, | B,,,3 z2 E,,, A,,,3 z z2 | E,,,2 z E,,2 z E,,,2 z E,,2 z | %221
 z8 E,,, A,,,2 z | z8 A,,, D,,2 z | ^D,,2 z E,,2 z ^E,,2 z F,,2 z | G,,2 z A,,2 z D,,2 z E,,2 z | %225
 z4 z8 | z4 z8 | C,,2 z F,,2 z B,,,2 z E,,2 z | A,,,2 z2 z8 | A,,,2 z A,,2 z A,,,2 z A,,2 z | z12 | %231
 A,,2 z G,,2 z F,,2 z E,,2 z | D,,2 z E,,2 z A,,,2 E,, A,,G,,A,, | ^D,,2 z B,,,2 z C,,2 z A,,,2 z | %234
 B,,,2 A,,, G,,,2 F,,, E,,,2 B,,, E,,D,,E,, | C,,2 z F,,2 z B,,,2 z E,,2 z | %236
 A,,,2 A,, A,,,2 A,, A,,,2 A,, A,,,2 A,, | A,,,2 z A,,2 z A,,,2 z A,,2 A,,, | %238
 D,,2 B,,, E,,2 G,,, A,,,C,,E,, A,,,2 z | C,,,2 C,, C,,,2 C,, C,,,2 C,, C,,,2 C,, | %240
 C,,,2 C,, C,,,2 C,, C,,,2 C,, C,,,2 z | z12 | z12 | z12 | z12 | F,,2 z E,,2 z D,,2 z C,,2 z | %246
 B,,,2 z C,,2 z F,,,2 C,, F,,2 z | z8 G,,, C,,2 z | z8 F,,, B,,,2 z | z z4 F,, ^D,,3 z2 E,, | %250
 C,,3 z2 ^D,, ^B,,,3 z z2 | C,,2 z G,,,2 z C,,,2 z G,,,2 z | C,,2 z G,,2 z C,2 z G,,2 z | z12 | %254
 z12 | z12 | z12 | C,,2 z C,,,2 z C,,2 z C,,,2 C,, | F,,2 ^D,, G,,2 ^B,,, C,,E,,,G,,, C,,,2 z | %259
 A,,2 z G,,2 z F,,2 z E,,2 z | D,,2 z E,,2 z A,,,2 E,, A,,G,,A,, | ^D,,2 z B,,,2 z C,,2 z A,,,2 z | %262
 B,,,2 A,,, G,,,2 F,,, E,,,2 B,,, E,,D,,E,, | C,,2 z F,,2 z B,,,2 z E,,2 z | %264
 A,,,2 A,, A,,,2 A,, A,,,2 A,, A,,,2 A,, | A,,,2 z A,,2 z A,,,2 z A,,2 A,,, | %266
 D,,2 B,,, E,,2 G,,, A,,,C,,E,, A,,C,,E,, | z12 | z12 | z12 | z12 | E,,2 z ^D,,2 z C,,2 z B,,,2 z | %272
 A,,,2 z B,,,2 z E,,,4- E,,, z | z12 | z12 | z12 | z12 | G,,,2 z C,,2 z F,,,2 z B,,,2 z | %278
 E,,,2 z2 z8 | E,,,2 z E,,2 z2 z4 E,,, | A,,,2 F,,, B,,,2 ^D,, E,,G,,,B,,, E,,,2 z | %281
 z8 F,,, B,,,2 z | z8 E,,, A,,,2 z | z4 z B,,, C,,3 z2 A,,, | B,,,3 z2 E,,, A,,,3 z z2 | %285
 E,,,2 z E,,2 z E,,,2 z E,,2 z | z8 E,,, A,,,2 z | z8 A,,, D,,2 z | ^D,,2 z E,,2 z ^E,,2 z F,,2 z | %289
 G,,2 z A,,2 z D,,2 z E,,2 z | z12 | z12 | C,,2 z F,,2 z B,,,2 z E,,2 z | A,,,2 z2 z8 | %294
 A,,,2 z A,,2 z A,,,2 z A,,2 z | z12 | A,,2 z G,,2 z F,,2 z E,,2 z | %297
 D,,2 z E,,2 z A,,,2 E,, A,,G,,A,, | ^D,,2 z B,,,2 z C,,2 z A,,,2 z | %299
 B,,,2 A,,, G,,,2 F,,, E,,,2 B,,, E,,D,,E,, | C,,2 z F,,2 z B,,,2 z E,,2 z | %301
 A,,,2 A,, A,,,2 A,, A,,,2 A,, A,,,2 A,, | A,,,2 z A,,2 z A,,,2 z A,,2 A,,, | %303
 D,,2 B,,, E,,2 G,,, A,,,C,,E,, !fermata!A,,,2 z |] %304

